!!!COM: Beethoven, Ludwig van
!!!CDT: 1770///-1827///
!!!ODT: 1806///
!!!OTL: String Quartet No. 7 in F Major, Op. 59, No. 1
!!!OPS: Op. 59
!!!ONM: No. 1
!!!OMV: Mvmt. 4
!!!OMD: Allegro (Th&egrave;me russe)
!!!PDT: 1808///
!!!PPP: Vienna
!!!ODE: Dem Grafen Rasoumoffsky gewidmet
!!!ONB: Op. 59 are called the Rasumovsky Quartets
!!!MPD: 1806///
**kern	**dynam	**kern	**dynam	**kern	**dynam	**kern	**dynam
*staff4	*staff4	*staff3	*staff3	*staff2	*staff2	*staff1	*staff1
*Icello	*Icello	*Iviola	*Iviola	*Ivioln	*Ivioln	*Ivioln	*Ivioln
*>[A,A,B]	*>[A,A,B]	*>[A,A,B]	*>[A,A,B]	*>[A,A,B]	*>[A,A,B]	*>[A,A,B]	*>[A,A,B]
*>norep[A,B]	*>norep[A,B]	*>norep[A,B]	*>norep[A,B]	*>norep[A,B]	*>norep[A,B]	*>norep[A,B]	*>norep[A,B]
*>A	*>A	*>A	*>A	*>A	*>A	*>A	*>A
*clefF4	*clefF4	*clefC3	*clefC3	*clefG2	*clefG2	*clefG2	*clefG2
*k[b-]	*k[b-]	*k[b-]	*k[b-]	*k[b-]	*k[b-]	*k[b-]	*k[b-]
*F:	*F:	*F:	*F:	*F:	*F:	*F:	*F:
*M2/4	*M2/4	*M2/4	*M2/4	*M2/4	*M2/4	*M2/4	*M2/4
*MM120	*MM120	*MM120	*MM120	*MM120	*MM120	*MM120	*MM120
=1-	=1-	=1-	=1-	=1-	=1-	=1-	=1-
(4D\	p	2r	.	2r	.	[2cc\	p
8C\L	.	.	.	.	.	.	.
16D\L	.	.	.	.	.	.	.
16E\JJ)	.	.	.	.	.	.	.
=2	=2	=2	=2	=2	=2	=2	=2
8F'\L	.	2r	.	2r	.	2cc\_	.
8F'\J	.	.	.	.	.	.	.
8G'\L	.	.	.	.	.	.	.
8G'\J	.	.	.	.	.	.	.
=3	=3	=3	=3	=3	=3	=3	=3
(4A\	.	2r	.	2r	.	2cc\_	.
8c\L)	.	.	.	.	.	.	.
16c'\L	.	.	.	.	.	.	.
16B-'\JJ	.	.	.	.	.	.	.
=4	=4	=4	=4	=4	=4	=4	=4
(4A\	.	2r	.	2r	.	2cc\]	.
8.c\L	.	.	.	.	.	.	.
16B-\Jk)	.	.	.	.	.	.	.
=5	=5	=5	=5	=5	=5	=5	=5
(4A\	p	2r	.	2r	.	4cc\	.
8G\L	.	.	.	.	.	4cc#\	.
16A\L	.	.	.	.	.	.	.
16E\JJ)	.	.	.	.	.	.	.
=6	=6	=6	=6	=6	=6	=6	=6
8F'\L	.	2r	.	2r	.	4dd\	.
8D'\J	.	.	.	.	.	.	.
.	.	.	.	.	.	cc#q/LL	.
.	.	.	.	.	.	ddq/JJ	.
8C#'/L	.	.	.	.	.	4ee\	.
8AA'/J	.	.	.	.	.	.	.
=7	=7	=7	=7	=7	=7	=7	=7
.	.	.	.	.	.	ddq/LL	.
.	.	.	.	.	.	eeq/JJ	.
8D'\L	.	2r	.	2r	.	8.ff\L	.
8F'\J	.	.	.	.	.	.	.
.	.	.	.	.	.	32ee\LL	.
.	.	.	.	.	.	32dd\JJJ	.
8E'\L	.	.	.	.	.	8.cc#\L	.
8A'\J	.	.	.	.	.	.	.
.	.	.	.	.	.	32bn\LL	.
.	.	.	.	.	.	32cc#\JJJ	.
=8	=8	=8	=8	=8	=8	=8	=8
(4D\	.	16r	p	4r	p	4dd\	.
.	.	16f'\LL	.	.	.	.	.
.	.	16e'\	.	.	.	.	.
.	.	16a'\JJ	.	.	.	.	.
[4Cn/)	.	8f'\	.	16r	.	4r	.
.	.	.	.	16a'/LL	.	.	.
.	.	8r	.	16f'/	.	.	.
.	.	.	.	16b-'/JJ	.	.	.
=9	=9	=9	=9	=9	=9	=9	=9
2C/_	.	8g'\L	.	8b-'\L	.	(4dd\	.
.	.	8g'\J	.	8b-'\J	.	.	.
.	.	8r	.	8r	.	8cc\L	.
.	.	8g'\	.	8b-'\	.	16dd\L	.
.	.	.	.	.	.	16ee\JJ)	.
=10	=10	=10	=10	=10	=10	=10	=10
2C/_	.	8r	.	8r	.	8ff'\L	.
.	.	8f\	.	8a/	.	8ff'\J	.
.	.	8r	.	8r	.	8gg'\L	.
.	.	8c\	.	8g/	.	8gg'\J	.
=11	=11	=11	=11	=11	=11	=11	=11
2C/_	.	8r	.	8r	.	(4aa\	.
.	.	8A/	.	8f/	.	.	.
.	.	8r	.	8r	.	8ccc\L)	.
.	.	8e\	.	8g/	.	16ccc'\L	.
.	.	.	.	.	.	16bb-'\JJ	.
=12	=12	=12	=12	=12	=12	=12	=12
2C/]	.	8r	.	8r	.	(4aa\	.
.	.	8f\	.	8a/	.	.	.
.	.	8r	.	8r	.	8.ccc\L	.
.	.	8e\	.	8g/	.	.	.
.	.	.	.	.	.	16bb-\Jk)	.
=13	=13	=13	=13	=13	=13	=13	=13
4C/	.	8r	.	8r	.	(4aa\	p
.	.	8f\	.	8a/	.	.	.
4C#/	.	8r	.	8r	.	8gg\L	.
.	.	8e\	.	8a/	.	16aa\L	p
.	.	.	.	.	.	16ee\JJ)	.
=14	=14	=14	=14	=14	=14	=14	=14
4D\	.	8r	.	8r	.	8ff'\L	.
.	.	8f\	.	8a/	.	8dd'\J	.
4E\	.	8r	.	8r	.	8cc#'\L	.
.	.	8g\	.	8a/	.	8a'\J	.
=15	=15	=15	=15	=15	=15	=15	=15
8.F\L	.	8r	.	8r	.	8dd'\L	.
.	.	8f\	.	8a/	.	8ff'\J	.
32E\LL	.	.	.	.	.	.	.
32D\JJJ	.	.	.	.	.	.	.
8.C#/L	.	8r	.	8r	.	8ee'\L	.
.	.	8g\	.	8a/	.	8aa'\J	.
32BBn/LL	.	.	.	.	.	.	.
32AA/JJJ	.	.	.	.	.	.	.
=16	=16	=16	=16	=16	=16	=16	=16
(2BB-/	<	(4D/	<	(4ff\	<	4dd\	.
.	.	8C/L	.	8ee\L	.	4r	.
.	.	16D/L	.	16ff\L	.	.	.
.	.	16E/JJ)	.	16gg\JJ)	.	.	.
=17	=17	=17	=17	=17	=17	=17	=17
4AA/	.	8F'/L	.	8aa'\L	.	4r	<
.	.	8F'/J	.	8aa'\J	.	.	.
4GG/)	.	8G'/L	.	8bb-'\L	.	(8ccc\L	.
.	.	8G'/J	.	8bb-'\J	.	16ddd\L	.
.	.	.	.	.	.	16eee\JJ)	.
=18	=18	=18	=18	=18	=18	=18	=18
(16FF/LL	f	(4A/	f	8aa\	f	8fff'\L	f
16AA/)	.	.	.	.	.	.	.
(16AA/	.	.	.	4cc\	.	8fff'\J	.
16C/JJ)	.	.	.	.	.	.	.
(16EE/LL	.	8c/L)	.	.	.	8ggg'\L	.
(16GG/)	.	.	.	.	.	.	.
16GG/)	.	16c'/L	.	[8cc\	.	8ggg'\J	.
16C/JJ	.	16B-'/JJ	.	.	.	.	.
=19	=19	=19	=19	=19	=19	=19	=19
(16FF/LL	.	(4A/	.	8cc\L]	.	(4aaa\	.
(16AA/)	.	.	.	.	.	.	.
16AA/)	.	.	.	8cc\J	.	.	.
16C/JJ	.	.	.	.	.	.	.
(16CC/LL	.	8E/L)	.	8ccc\L	.	8cccc\L)	.
16EE/)	.	.	.	.	.	.	.
(16GG/	.	16E'/L	.	16ccc'\L	.	16cccc'\L	.
16C/JJ)	.	16G'/JJ	.	16bb-'\JJ	.	16bbb-'\JJ	.
=20	=20	=20	=20	=20	=20	=20	=20
(16FF/LL	.	4F/	.	8aa\	.	4aaa\	.
16AA/)	.	.	.	.	.	.	.
(16AA/	.	.	.	4cc\	.	.	.
16C/JJ)	.	.	.	.	.	.	.
(16EE/LL	.	(8.c/L	v	.	.	4r	.
16GG/)	.	.	.	.	.	.	.
(16GG/	.	.	.	[8cc\	.	.	.
16C/JJ)	.	16B-/Jk)	.	.	.	.	.
=21	=21	=21	=21	=21	=21	=21	=21
(16FF/LL	.	4A/	.	8cc\L]	.	4r	.
16AA/)	.	.	.	.	.	.	.
(16AA/	.	.	.	8cc\J	.	.	.
16C/JJ)	.	.	.	.	.	.	.
(16CC/LL	v	(8.E/L	v	(8.ccc\L	v	(8.cccc\L	v
16EE/)	.	.	.	.	.	.	.
16GG'/	.	.	.	.	.	.	.
16C'/JJ	.	16G/Jk)	.	16bb-\Jk)	.	16bbb-\Jk)	.
=22	=22	=22	=22	=22	=22	=22	=22
8FF/	ff	16G/LL	ff	(16bb-\LL	ff	(16bbb-\LL	ff
.	.	16F/JJ	.	16aa\)	.	16aaa\)	.
4F\	.	4A/	.	16fff'\	.	16aaa'\	.
.	.	.	.	16eee'\JJ	.	16ggg'\JJ	.
.	.	.	.	(16eee\LL	.	(16ggg\LL	.
.	.	.	.	16ddd\)	.	16fff\)	.
[8A\	.	[8c\	.	16ddd'\	.	16fff'\	.
.	.	.	.	16ccc'\JJ	.	16eee'\JJ	.
=23	=23	=23	=23	=23	=23	=23	=23
(8A\L]	.	(8c\L]	.	(16ccc\LL	.	(16eee\LL	.
.	.	.	.	16bb-\)	.	16ddd\)	.
8B-\J)	.	8d\J)	.	16bb-'\	.	16ddd'\	.
.	.	.	.	16aa'\JJ	.	16ccc#'\JJ	.
4r	.	4r	.	(16aa\LL	.	(16ccc#\LL	.
.	.	.	.	16bb-\)	.	16ddd\)	.
.	.	.	.	16bb-'\	.	16ddd'\	.
.	.	.	.	16aa'\JJ	.	16cccn'\JJ	.
=24	=24	=24	=24	=24	=24	=24	=24
8r	.	8r	.	(16aa\LL	.	(16ccc\LL	.
.	.	.	.	16gg\)	.	16bb-\)	.
4G\	.	4B-/	.	16gg'\	.	16bb-'\	.
.	.	.	.	16ff'\JJ	.	16aa'\JJ	.
.	.	.	.	(16ff\LL	.	(16aa\LL	.
.	.	.	.	16ee\)	.	16gg\)	.
[8B-\	.	[8d\	.	16ee'\	.	16gg'\	.
.	.	.	.	16dd'\JJ	.	16ff'\JJ	.
=25	=25	=25	=25	=25	=25	=25	=25
(8B-\L]	.	(8d\L]	.	(16dd\LL	.	(16ff\LL	.
.	.	.	.	16cc\)	.	16ee\JJ)	.
8c\J)	.	16e\L)	p	16ee'\	p	8r	.
.	.	16f'\JJ	.	16ff'\JJ	.	.	.
4r	.	(16f#\LL	.	(16ff#\LL	.	4r	.
.	.	16g\)	.	16gg\)	.	.	.
.	.	16g'\	.	16gg'\	.	.	.
.	.	16fn'\JJ	.	16ffn'\JJ	.	.	.
=26	=26	=26	=26	=26	=26	=26	=26
2r	.	(16f\LL	.	(16ff\LL	.	4r	.
.	.	16e\)	.	16ee\)	.	.	.
.	.	16e'\	.	16ee'\	.	.	.
.	.	16d'\JJ	.	16dd'\JJ	.	.	.
.	.	(16d\LL	.	(16dd\LL	.	[4ccc\	p
.	.	16c\)	.	16cc\)	.	.	.
.	.	16c'\	.	16cc'\	.	.	.
.	Xp	16Bn'\JJ	.	16bn'\JJ	.	.	.
=27	=27	=27	=27	=27	=27	=27	=27
8r	<	(16c\LL	<	(16cc\LL	<	(4.ccc\]	<
.	.	16B-\)	.	16b-\)	.	.	.
(8D\L	.	(16B-\	.	(16b-\	.	.	.
.	.	16f\JJ	.	16ff\JJ	.	.	.
8E\	>	16g\LL	>	16gg\LL	>	.	>
.	.	16B-\	.	16b-\	.	.	.
8F\J)	.	16A\	.	16a\	.	16aa\LL	.
.	.	16f\JJ)	.	16ff\JJ)	.	16ccc\JJ)	.
=28	=28	=28	=28	=28	=28	=28	=28
8r	<	(16c\LL	<	(16cc\LL	<	(4.ccc\	<
.	.	16B-\)	.	16b-\)	.	.	.
(8D\L	.	(16B-\	.	(16b-\	.	.	.
.	.	16f\JJ	.	16ff\JJ	.	.	.
8E\	>	16g\LL	>	16gg\LL	>	.	>
.	.	16B-\	.	16b-\	.	.	.
8F\J)	.	16A\	.	16a\	.	16aa\LL	.
.	.	16f\JJ)	.	16ff\JJ)	.	16ccc\JJ)	.
=29	=29	=29	=29	=29	=29	=29	=29
8r	Xp	(16G/LL	Xp	(16g\LL	Xp	4r	Xp
.	.	16d/JJ)	.	16dd\JJ)	.	.	.
8BB-/	.	16r	.	16r	.	.	.
.	.	16d\	.	16dd\	.	.	.
8r	.	(16E/LL	.	(16e/LL	.	(16fff#\LL	.
.	.	16c/JJ)	.	16cc/JJ)	.	16ggg\)	.
8C/	.	16r	.	16r	.	16fffn\	.
.	.	16c\	.	16cc\	.	16eee\JJ	.
=30	=30	=30	=30	=30	=30	=30	=30
8r	<	8r	<	8r	<	(16ddd\LL	<
.	.	.	.	.	.	16ccc\)	.
(8d\L	.	(8f\L	.	(8b-\L	.	(16bb-\	.
.	.	.	.	.	.	16fff\JJ	.
8c\	>	8b-\	>	8ee\	>	16ggg\LL	>
.	.	.	.	.	.	16bb-\	.
8f\J)	.	8a\J)	.	8ff\J)	.	16aa\	.
.	.	.	.	.	.	16fff\JJ)	.
=31	=31	=31	=31	=31	=31	=31	=31
8r	<	8r	<	8r	<	(16ccc\LL	<
.	.	.	.	.	.	16bb-\)	.
(8DD-/L	.	(8F/L	.	(8b-\	.	(16bb-\	.
.	.	.	.	.	.	16fff\JJ	.
8CC/	>	8E/	>	16gg\LL	>	16ggg\LL	>
.	.	.	.	16b-\	.	16bb-\	.
8FF/J)	.	8A/J)	.	16a\	.	16aa\	.
.	.	.	.	16ff\JJ)	.	16fff\JJ)	.
=32	=32	=32	=32	=32	=32	=32	=32
8r	<	8r	<	8r	<	(16gg\LL	<
.	.	.	.	.	.	16ddd\JJ)	.
8B-\	.	8g\	.	8dd\	.	16r	.
.	.	.	.	.	.	16ddd\	.
8r	.	8r	.	8r	.	(16ee\LL	.
.	.	.	.	.	.	16ccc\JJ)	.
8c\	.	8e\	.	8g/	.	16r	.
.	.	.	.	.	.	16ccc\	.
=33	=33	=33	=33	=33	=33	=33	=33
8r	.	8r	.	8r	.	(16ff\LL	.
.	.	.	.	.	.	16aa\JJ)	.
8A\	.	8f\	.	8cc\	.	16r	.
.	.	.	.	.	.	16aa\	.
8r	.	8r	.	8r	.	(16a\LL	.
.	.	.	.	.	.	16ff\JJ)	.
8D\	.	8A/	.	8f/	.	16r	.
.	.	.	.	.	.	16ff\	.
=34	=34	=34	=34	=34	=34	=34	=34
8r	.	8r	.	8r	.	(16g\LL	.
.	.	.	.	.	.	16dd\JJ)	.
8BB-/	.	8B-/	.	8d/	.	16r	.
.	.	.	.	.	.	16dd\	.
8r	.	8r	.	8r	.	(16e/LL	.
.	.	.	.	.	.	16cc/JJ)	.
8C/	.	8G/	.	8e/	.	16r	.
.	.	.	.	.	.	[16cc\	.
=35	=35	=35	=35	=35	=35	=35	=35
4FF/	ff	8A/L	ff	8f/L	ff	16cc/LL]	ff
.	.	.	.	.	.	(16c/	.
.	.	8A/J	.	8c/J	.	16A/)	.
.	.	.	.	.	.	(16f/JJ	.
(8C\L	.	8B-/L	.	8c/L	.	16g/LL)	.
.	.	.	.	.	.	(16e/	.
16D\L	.	8B-/J	.	8c/J	.	16c/)	.
16E\JJ)	.	.	.	.	.	(16g/JJ	.
=36	=36	=36	=36	=36	=36	=36	=36
8F'\L	.	8A/L	.	8c/L	.	16a/LL)	.
.	.	.	.	.	.	(16f/	.
8F'\J	.	8A/J	.	8c/J	.	16c/)	.
.	.	.	.	.	.	(16a/JJ	.
8G'\L	.	8B-/L	.	8e/L	.	16b-/LL)	.
.	.	.	.	.	.	(16g/	.
8G'\J	.	8B-/J	.	8e/J	.	16e/)	.
.	.	.	.	.	.	(16b-/JJ	.
=37	=37	=37	=37	=37	=37	=37	=37
8A\L	.	8c\L	.	8f/L	.	16cc/LL)	.
.	.	.	.	.	.	(16a/	.
8A\J	.	8c\J	.	8f/J	.	16f/)	.
.	.	.	.	.	.	(16cc/JJ	.
8G\L	.	8c\L	.	8b-\L	.	16ee\LL)	.
.	.	.	.	.	.	(16b-\	.
8G\J	.	8c\J	.	8b-\J	.	16g\)	.
.	.	.	.	.	.	(16ee\JJ	.
=38	=38	=38	=38	=38	=38	=38	=38
8F\L	.	8c\L	.	8a/L	.	16ff\LL)	.
.	.	.	.	.	.	(16cc\	.
8F\J	.	8c\J	.	8a/J	.	16a\)	.
.	.	.	.	.	.	(16ff\JJ	.
8C/L	.	8e\L	.	8cc\L	.	16gg\LL)	.
.	.	.	.	.	.	(16ee\	.
8C/J	.	8e\J	.	8cc\J	.	16cc\)	.
.	.	.	.	.	.	(16gg\JJ	.
=39	=39	=39	=39	=39	=39	=39	=39
4AA/	.	8f\L	.	8cc\L	.	16aa\LL)	.
.	.	.	.	.	.	(16ff\	.
.	.	8f\J	.	8cc\J	.	16cc\)	.
.	.	.	.	.	.	(16aa\JJ	.
(8CC/L	.	8g\L	.	8b-\L	.	16ccc\LL)	.
.	.	.	.	.	.	(16gg\	.
16DD/L	.	8g\J	.	8b-\J	.	16ee\)	.
16EE/JJ)	.	.	.	.	.	16ccc'\JJ	.
=40	=40	=40	=40	=40	=40	=40	=40
8FF/L	.	8f\L	.	8a/L	.	16ccc'\LL	.
.	.	.	.	.	.	(16aa\	.
8FF/J	.	8f\J	.	8a/J	.	16ff\)	.
.	.	.	.	.	.	(16ccc\JJ	.
4r	.	(8E/L	.	(8g#/L	.	16eee\LL)	.
.	.	.	.	.	.	(16bbn\	.
.	.	16F#/L	.	16a/L	.	16gg#\)	.
.	.	16G#/JJ)	.	16bn/JJ)	.	16eee'\JJ	.
=41	=41	=41	=41	=41	=41	=41	=41
4r	.	8A/L	.	8cc\L	.	16eee'\LL	.
.	.	.	.	.	.	(16ccc\	.
.	.	8A/J	.	8cc\J	.	16aa\)	.
.	.	.	.	.	.	16eee'\JJ	.
(8EE/L	.	(8g#\L	.	8dd\L 8ee\	.	16eee'\LL	.
.	.	.	.	.	.	(16bbn\	.
16FF#/L	.	16a\L	.	8dd\J 8ee\	.	16aa-\)	.
16GG#/JJ)	.	16bn\JJ)	.	.	.	16eee'\JJ	.
=42	=42	=42	=42	=42	=42	=42	=42
8AA'/L	.	8cc'\L	.	8cc\L 8ee\	.	16eee'\LL	.
.	.	.	.	.	.	(16ccc\	.
8AA'/J	.	8cc'\J	.	8cc\J 8ee\	.	16aa\)	.
.	.	.	.	.	.	16eee'\JJ	.
(8DD/L	.	(8D/L	.	8dd\L 8ff\	.	16fff'\LL	.
.	.	.	.	.	.	(16ddd\	.
16EE/L	.	16E/L	.	8dd\J 8ff\	.	16aa\)	.
16FF#/JJ)	.	16Fn/JJ)	.	.	.	16fff'\JJ	.
=43	=43	=43	=43	=43	=43	=43	=43
(8GGn/L	v	[4G/	v	2r	.	(16fff\LL	v
.	.	.	.	.	.	16ddd\)	.
16BBn/L	.	.	.	.	.	(16ddd\	.
16D/JJ)	.	.	.	.	.	16fff\JJ)	.
4G\	.	(8G/L]	.	.	.	(16fff\LL	v
.	.	.	.	.	.	16ddd\)	.
.	.	16Bn/L	.	.	.	(16ddd\	.
.	.	16d/JJ)	.	.	.	16fff\JJ)	.
=44	=44	=44	=44	=44	=44	=44	=44
2r	.	4g\	.	(8g/L	v>	(16fff\LL	v>
.	.	.	.	.	.	16ddd\)	.
.	.	.	.	8bn/J	.	(16ddd\	.
.	.	.	.	.	.	16fff\JJ)	.
.	.	4r	.	8dd\L	.	(16fff\LL	.
.	.	.	.	.	.	16ddd\)	.
.	.	.	.	8ff\J)	.	(16gg\	.
.	.	.	.	.	.	16ggg\JJ)	.
=45	=45	=45	=45	=45	=45	=45	=45
8r	.	8r	.	(4ee\	p	(16ggg\LL	p
.	.	.	.	.	.	16gg\)	.
8c\	p	8e\	p	.	.	(16gg\	.
.	.	.	.	.	.	16ggg\JJ)	.
8r	.	8r	.	4bn\	.	(16ggg\LL	.
.	.	.	.	.	.	16gg\)	.
8d\	.	8f\	.	.	.	(16gg\	.
.	.	.	.	.	.	16ggg\JJ)	.
=46	=46	=46	=46	=46	=46	=46	=46
8r	.	8r	.	4cc\	.	(16ggg\LL	.
.	.	.	.	.	.	16gg\)	.
8e\	.	8g\	.	.	.	(16gg\	.
.	.	.	.	.	.	16ggg\JJ)	.
8r	.	8r	.	4dd-\	.	(16ggg\LL	.
.	.	.	.	.	.	16gg\)	.
8e\	.	8g\	.	.	.	(16gg\	.
.	.	.	.	.	.	16ggg\JJ)	.
=47	=47	=47	=47	=47	=47	=47	=47
8r	.	8r	.	4dd\	.	(16ggg\LL	.
.	.	.	.	.	.	16gg\)	.
8f\	.	8bn\	.	.	.	(16gg\	.
.	.	.	.	.	.	16ggg\JJ)	.
8r	.	8r	.	4ee\	.	(16ggg\LL	.
.	.	.	.	.	.	16gg\)	.
8e\	.	8dd-\	.	.	.	(16gg\	.
.	.	.	.	.	.	16ggg\JJ)	.
=48	=48	=48	=48	=48	=48	=48	=48
8r	.	8r	.	2ff\)	.	(16ggg\LL	.
.	.	.	.	.	.	16gg\)	.
8d'\	.	8dd\	.	.	.	(16gg\	.
.	.	.	.	.	.	16ggg\JJ)	.
8r	.	8r	.	.	.	(16ggg\LL	.
.	.	.	.	.	.	16gg\)	.
8c'\	.	8dd\	.	.	.	(16gg\	.
.	.	.	.	.	.	16ggg\JJ)	.
=49	=49	=49	=49	=49	=49	=49	=49
8r	<	8r	<	(4ff\	<	(16ggg\LL	<
.	.	.	.	.	.	16gg\)	.
8Bn\	.	8dd\	.	.	.	(16gg\	.
.	.	.	.	.	.	16ggg\JJ)	.
8r	.	8r	.	4gg\	.	(16ggg\LL	.
.	.	.	.	.	.	16gg\)	.
8A\	.	8ee\	.	.	.	(16gg\	.
.	.	.	.	.	.	16ggg\JJ)	.
=50	=50	=50	=50	=50	=50	=50	=50
8r	.	8r	.	4aa\	.	(16ggg\LL	.
.	.	.	.	.	.	16gg\)	.
8G\	.	8ff\	.	.	.	(16gg\	.
.	.	.	.	.	.	16ggg\JJ)	.
8r	.	8r	.	4bn\	.	(16ggg\LL	.
.	.	.	.	.	.	16gg\)	.
8F\	.	8d\	.	.	.	(16gg\	.
.	.	.	.	.	.	16ggg\JJ)	.
=51	=51	=51	=51	=51	=51	=51	=51
8r	>	8r	>	4cc\	>	(16ggg\LL	>
.	.	.	.	.	.	16gg\)	.
8E\	.	8e\	.	.	.	(16gg\	.
.	.	.	.	.	.	16ggg\JJ)	.
8r	.	8r	.	4dd\	.	(16ggg\LL	.
.	.	.	.	.	.	16gg\)	.
8D\	.	8f\	.	.	.	(16gg\	.
.	.	.	.	.	.	16ggg\JJ)	.
=52	=52	=52	=52	=52	=52	=52	=52
8r	.	8r	.	4ee\	.	(16ggg\LL	.
.	.	.	.	.	.	16gg\)	.
8C/	.	8g\	.	.	.	(16gg\	.
.	.	.	.	.	.	16ggg\JJ)	.
8r	.	8r	.	4ff\)	.	(16ggg\LL	.
.	.	.	.	.	.	16gg\)	.
8GG/	.	8bn\	.	.	.	(16gg\	.
.	.	.	.	.	.	16ggg\JJ)	.
=53	=53	=53	=53	=53	=53	=53	=53
(4E-\	Xp	8cc\	Xp	8ee-\	Xp	(16ggg\LL	Xp
.	.	.	.	.	.	16gg\)	.
.	.	4G/	.	4g/	.	(16gg\	.
.	.	.	.	.	.	16ggg\JJ)	.
4BBn/	.	.	.	.	.	(16fff\LL	.
.	.	.	.	.	.	16gg\)	.
.	.	[8G/	.	[8g/	.	(16gg\	.
.	.	.	.	.	.	16fff\JJ)	.
=54	=54	=54	=54	=54	=54	=54	=54
4C/	.	8G/]	.	8g/]	.	(4eee-\	.
.	.	4G/	.	4g/	.	.	.
4D\	.	.	.	.	.	4bbn\	.
.	.	[8G/	.	[8g/	.	.	.
=55	=55	=55	=55	=55	=55	=55	=55
4E-\	.	8G/]	.	8g/]	.	4ccc\	.
.	.	4G/	.	4g/	.	.	.
4En\	.	.	.	.	.	4ddd-\	.
.	.	[8G/	.	[8g/	.	.	.
=56	=56	=56	=56	=56	=56	=56	=56
2F\)	.	8G/]	.	8g/]	.	4ddd\	.
.	.	4G/	.	4g/	.	.	.
.	.	.	.	.	.	4eee-\	.
.	.	[8G/	.	[8g/	.	.	.
=57	=57	=57	=57	=57	=57	=57	=57
(4F\	<	8G/]	<	8g/]	<	2fff\)	<
.	.	4G/	.	4g/	.	.	.
4G\	.	.	.	.	.	.	.
.	.	[8G/	.	[8g/	.	.	.
=58	=58	=58	=58	=58	=58	=58	=58
4A-\	.	8G/]	.	8g/]	.	(4fff\	.
.	.	4G/	.	4g/	.	.	.
4BBn/	.	.	.	.	.	4ggg\	.
.	.	[8G/	.	[8g/	.	.	.
=59	=59	=59	=59	=59	=59	=59	=59
4C/	.	8G/]	.	8g/]	.	4aaa-\	.
.	.	4G/	.	4g/	.	.	.
4D\	.	.	.	.	.	4bbn\	.
.	.	[8G/	.	[8g/	.	.	.
=60	=60	=60	=60	=60	=60	=60	=60
4E-\	>	8G/]	>	8g/]	>	4ccc\	>
.	.	4G/	.	4g/	.	.	.
4D\	.	.	.	.	.	4ddd\)	.
.	.	[8G/	.	[8g/	.	.	.
=61	=61	=61	=61	=61	=61	=61	=61
4C/	.	8G/]	.	8g/]	.	[2eee-\	.
.	.	4G/	.	4g/	.	.	.
4BB-/)	.	.	.	.	.	.	.
.	.	(8G/	.	(8dd-\	.	.	.
=62	=62	=62	=62	=62	=62	=62	=62
[2AA-/	pp	[2A-/)	pp	2cc\)	pp	(4eee-\]	pp
.	.	.	.	.	.	8bbn\L	.
.	.	.	.	.	.	16ccc\L	.
.	.	.	.	.	.	16ddd\JJ)	.
=63	=63	=63	=63	=63	=63	=63	=63
2AA-/_	.	4A-/]	.	[2f#/	.	8eee-'\L	.
.	.	.	.	.	.	8eee-'\J	.
.	.	(8Bn\L	.	.	.	8ddd'\L	.
.	.	16c\L	.	.	.	8ddd'\J	.
.	.	16d\JJ)	.	.	.	.	.
=64	=64	=64	=64	=64	=64	=64	=64
2AA-/]	.	8e-'\L	.	2f#/]	.	8ccc'\L	.
.	.	8e-'\J	.	.	.	8ccc'\J	.
.	.	8d'\L	.	.	.	(8bbn\L	.
.	.	8d'\J	.	.	.	16ccc\L	.
.	.	.	.	.	.	16ddd\JJ)	.
=65	=65	=65	=65	=65	=65	=65	=65
16GG'/LL	ff	2c\	ff	2g/	ff	2eee\	ff
16AA'/	.	.	.	.	.	.	.
16BBn'/	.	.	.	.	.	.	.
16C'/JJ	.	.	.	.	.	.	.
16D'\LL	.	.	.	.	.	.	.
16E'\	.	.	.	.	.	.	.
16F'\	.	.	.	.	.	.	.
16G'\JJ	.	.	.	.	.	.	.
=66	=66	=66	=66	=66	=66	=66	=66
2F\	v	16F'/LL	.	2c/	v	2f/ 2a/	v
.	.	16G'/	.	.	.	.	.
.	.	16A'/	.	.	.	.	.
.	.	16Bn'/JJ	.	.	.	.	.
.	.	16c'\LL	.	.	.	.	.
.	.	16d'\	.	.	.	.	.
.	.	16e'\	.	.	.	.	.
.	.	16f'\JJ	.	.	.	.	.
=67	=67	=67	=67	=67	=67	=67	=67
2D\	.	2F/ 2G/	.	16ff'\LL	f	16bn'\LL	.
.	.	.	.	16ee'\	.	16cc'\	.
.	.	.	.	16dd'\	.	16dd'\	.
.	.	.	.	16cc'\JJ	.	16ee'\JJ	.
.	.	.	.	16bn'/LL	.	16ff'\LL	.
.	.	.	.	16a'/	.	16gg'\	.
.	.	.	.	16g'/	.	16aa'\	.
.	.	.	.	16f'/JJ	.	16bbn'\JJ	.
=68	=68	=68	=68	=68	=68	=68	=68
16C/LL	.	16e\LL	.	16e/LL	.	16ccc\LL	.
16BBn/	.	16d\	.	16f/	.	16ddd\	.
16AA/	.	16c\	.	16g/	.	16eee\	.
16GG/JJ	.	16Bn\JJ	.	16a/JJ	.	16fff\JJ	.
16FF/LL	.	16A/LL	.	16bn\LL	.	16ggg\LL	.
16EE/	.	16G/	.	16cc\	.	16aaa\	.
16DD/	.	16F/	.	16dd\	.	16bbbn\	.
16CC/JJ	.	16E/JJ	.	16ee\JJ	.	16cccc\JJ	.
=69	=69	=69	=69	=69	=69	=69	=69
8FF/	.	8c\	.	8ff\	.	8aaa\	.
8r	.	8r	.	8r	.	8r	.
8F\	.	8c\ 8a\	.	8f/ 8a/	.	8f\ 8cc\ 8aa\	.
8r	.	8r	.	8r	.	8r	.
=70	=70	=70	=70	=70	=70	=70	=70
8G\	.	8c\ 8g\	.	8e/ 8cc/ 8ee/	.	8e\ 8cc\ 8gg\	.
8r	.	8r	.	8r	.	8r	.
8GG/	.	8G/	.	8G/ 8f/	.	8G/ 8d/ 8bn/	.
8r	.	8r	.	8r	.	8r	.
=71	=71	=71	=71	=71	=71	=71	=71
4r	.	2r	.	2r	.	2r	.
(8BBn/L	pp	.	.	.	.	.	.
16C/L	.	.	.	.	.	.	.
16D/JJ)	.	.	.	.	.	.	.
=72	=72	=72	=72	=72	=72	=72	=72
8E-\L	.	4r	.	4r	.	4r	.
8E-\J	.	.	.	.	.	.	.
8E-\L	.	(8A/L	pp	(8a\L	pp	(8ff#\L	pp
8E-\J	.	16G/L	.	16bn\L	.	16gg\L	.
.	.	16F#/JJ)	.	16cc\JJ)	.	16aa\JJ)	.
=73	=73	=73	=73	=73	=73	=73	=73
8.E\L	<	8.G/L	<	16cc\LL	<	16gg\LL	<
.	.	.	.	16ee\J	.	16gg\J	.
.	.	.	.	[8ee\J	.	[8gg\J	.
16G'\Jk	.	16c'/Jk	.	.	.	.	.
8.G\L	.	8.c\L	.	16ee\LL]	.	16gg\LL]	.
.	.	.	.	16ee\J	.	16gg\J	.
.	.	.	.	[8ee\J	.	[8gg\J	.
16c'\Jk	.	16e'\Jk	.	.	.	.	.
=74	=74	=74	=74	=74	=74	=74	=74
8.c\L	.	8.e\L	.	16ee\LL]	.	16gg\LL]	.
.	.	.	.	16ee\J	.	16gg\J	.
.	.	.	.	[8ee\J	.	[8gg\J	.
16e\Jk	.	16g\Jk	.	.	.	.	.
(16e\LL	.	(16g\LL	.	16ee\LL]	.	16gg\LL]	.
16c\)	.	16e\)	.	16ee\	.	16gg\	.
16G'\	.	16c'\	.	16ee\	.	16gg\	.
16E'\JJ	.	16G'\JJ	.	16ee\JJ	.	16gg\JJ	.
=75	=75	=75	=75	=75	=75	=75	=75
8.D\L	.	8.F/L	.	16ff\LL	.	16gg\LL	.
.	.	.	.	16ff\J	.	16gg\J	.
.	.	.	.	[8ff\J	.	[8gg\J	.
16F'\Jk	.	16Bn'/Jk	.	.	.	.	.
8.F\L	.	8.B\L	.	16ff\LL]	.	16gg\LL]	.
.	.	.	.	16ff\J	.	16gg\J	.
.	.	.	.	[8ff\J	.	[8gg\J	.
16Bn'\Jk	.	16d'\Jk	.	.	.	.	.
=76	=76	=76	=76	=76	=76	=76	=76
8.Bn\L	.	8.d\L	.	16ff\LL]	.	16gg\LL]	.
.	.	.	.	16ff\J	.	16gg\J	.
.	.	.	.	[8ff\J	.	[8gg\J	.
16d\Jk	.	16f\Jk	.	.	.	.	.
16d\LL	.	16f/LL	.	16ff\LL]	.	16gg\LL]	.
16B\	.	16d/	.	16ff\	.	16gg\	.
16F\	.	16Bn/	.	16ff\	.	16gg\	.
16D\JJ	.	16F/JJ	.	16ff\JJ	.	16gg\JJ	.
=77	=77	=77	=77	=77	=77	=77	=77
16C\LL	f	16G/LL	f	8.ee\L	f	8.gg\L	f
16c\J	.	16e/J	.	.	.	.	.
[8c\J	.	[8e/J	.	.	.	.	.
.	.	.	.	16gg'\Jk	.	16ccc'\Jk	.
16c\LL]	.	16e\LL]	.	8.gg\L	.	8.ccc\L	.
16c\J	.	16e\J	.	.	.	.	.
[8c\J	.	[8e\J	.	.	.	.	.
.	.	.	.	16ccc'\Jk	.	16eee'\Jk	.
=78	=78	=78	=78	=78	=78	=78	=78
16c\LL]	.	16e\LL]	.	8.ccc\L	.	8.eee\L	.
16c\J	.	16e\J	.	.	.	.	.
[8c\J	.	[8e\J	.	.	.	.	.
.	.	.	.	16eee'\Jk	.	16ggg'\Jk	.
16c\LL]	.	16e\LL]	.	(16eee\LL	.	(16ggg\LL	.
16c\	.	16e\	.	16ccc\)	.	16eee\)	.
16c\	.	16e\	.	16gg'\	.	16ccc'\	.
16c\JJ	.	16e\JJ	.	16ee'\JJ	.	16gg'\JJ	.
=79	=79	=79	=79	=79	=79	=79	=79
16d\LL	.	16f\LL	.	8.dd\L	.	8.ff\L	.
16G\J	.	16d\J	.	.	.	.	.
[8G\J	.	[8d\J	.	.	.	.	.
.	.	.	.	16ff'\Jk	.	16bbn'\Jk	.
16G\LL]	.	16d\LL]	.	8.ff\L	.	8.bb\L	.
16G\J	.	16d\J	.	.	.	.	.
[8G\J	.	[8d\J	.	.	.	.	.
.	.	.	.	16bbn'\Jk	.	16ddd'\Jk	.
=80	=80	=80	=80	=80	=80	=80	=80
16G\LL]	.	16d\LL]	.	8.bbn\L	.	8.ddd\L	.
16G\J	.	16d\J	.	.	.	.	.
[8G\J	.	[8d\J	.	.	.	.	.
.	.	.	.	16ddd'\Jk	.	16fff'\Jk	.
16G\LL]	.	16d\LL]	.	(16ddd\LL	.	(16fff\LL	.
16G\	.	16d\	.	16bb\)	.	16ddd\)	.
16G\	.	16d\	.	16ff'\	.	16bbn'\	.
16Bn\JJ	.	16d\JJ	.	16dd'\JJ	.	16ff'\JJ	.
=81	=81	=81	=81	=81	=81	=81	=81
16c\LL	p	16e\LL	p	8.cc\L	p	8.ee\L	p
16c\J	.	16e\J	.	.	.	.	.
[8G\J	.	[8f\J	.	.	.	.	.
.	.	.	.	16bn'\Jk	.	16dd'\Jk	.
16G\LL]	.	16f\LL]	.	8.cc\L	.	8.ee\L	.
16c\J	.	16e\J	.	.	.	.	.
[8A\J	.	[8g\J	.	.	.	.	.
.	.	.	.	16cc#'\Jk	.	16ee'\Jk	.
=82	=82	=82	=82	=82	=82	=82	=82
16A\LL]	.	16g\LL]	.	8.dd\L	.	8.ff\L	.
16d\J	.	16f\J	.	.	.	.	.
[8A\J	.	[8g\J	.	.	.	.	.
.	.	.	.	16cc#'\Jk	.	16ee'\Jk	.
16A\LL]	.	16g\LL]	.	8.dd\L	.	8.ff\L	.
16d\J	.	16f\J	.	.	.	.	.
8G\J	.	8f\J	.	.	.	.	.
.	.	.	.	16bn'\Jk	.	16dd'\Jk	.
=83	=83	=83	=83	=83	=83	=83	=83
16c\LL	<	16e/LL	<	8.cc\L	<	8.ee\L	<
16C\JJ	.	16E/JJ	.	.	.	.	.
[8GG/	.	[8F/	.	.	.	.	.
.	.	.	.	16dd'\Jk	.	16bbn'\Jk	.
16GG'/LL]	.	16F/LL]	.	8.ee\L	.	8.ccc\L	.
16C/J	.	16E/J	.	.	.	.	.
[8AA/J	.	[8G/J	.	.	.	.	.
.	.	.	.	16ee'\Jk	.	16ccc#'\Jk	.
=84	=84	=84	=84	=84	=84	=84	=84
16AA/LL]	.	16G/LL]	.	8.ff\L	.	8.ddd\L	.
16D/J	.	16F/J	.	.	.	.	.
[8AA/J	.	[8G/J	.	.	.	.	.
.	.	.	.	16ee\Jk	.	16ccc#\Jk	.
16AA/LL]	.	16G/LL]	.	8.ff\L	.	8.ddd\L	.
16D/J	.	16F/J	.	.	.	.	.
[8GG/J	.	[8f/J	.	.	.	.	.
.	.	.	.	16dd\Jk	.	16bbn\Jk	.
=85	=85	=85	=85	=85	=85	=85	=85
16GG/LL]	.	16f\LL]	.	8.ee\L	.	8.eee\L	.
16C/J	.	16e\J	.	.	.	.	.
[8BBn/J	.	[8d\J	.	.	.	.	.
.	.	.	.	16gg\Jk	.	16ggg\Jk	.
16BB/LL]	.	16d\LL]	.	8.cc\L	.	8.cccn\L	.
16AA/J	.	16c\J	.	.	.	.	.
[8GG/J	.	[8Bn\J	.	.	.	.	.
.	.	.	.	16ee\Jk	.	16eee\Jk	.
=86	=86	=86	=86	=86	=86	=86	=86
16GG/LL]	.	16B/LL]	.	8.a\L	.	8.aa\L	.
16FF/J	.	16A/J	.	.	.	.	.
[8DD/J	.	[8F/J	.	.	.	.	.
.	.	.	.	16dd\Jk	.	16ddd\Jk	.
16DD/LL]	.	16F/LL]	.	8.cc\L	.	8.ccc\L	.
16GG/J	.	16G/J	.	.	.	.	.
[8GG/J	.	[8G/J	.	.	.	.	.
.	.	.	.	16bn\Jk	.	16bbn\Jk	.
=87	=87	=87	=87	=87	=87	=87	=87
16GG/LK]	.	16G/LK]	.	16ee'\LK	f	16eee'\LK	f
8C/	f	8e/	f	8.gg\J	v	8.ggg\J	v
[16BBn/Jk	.	[16d/Jk	.	.	.	.	.
16BB/LK]	.	16d\LK]	.	16cc'\LK	.	16ccc'\LK	.
8AA/	.	8c\	.	8.ee\J	.	8.eee\J	.
[16GG/Jk	.	[16Bn\Jk	.	.	.	.	.
=88	=88	=88	=88	=88	=88	=88	=88
16GG/LK]	.	16B/LK]	.	16a'\LK	.	16aa'\LK	.
8FF/	.	8A/	.	8.dd\J	.	8.ddd\J	.
[16DD/Jk	.	[16F/Jk	.	.	.	.	.
16DD/LK]	.	16F/LK]	.	16cc'\LK	.	16ccc'\LK	.
8GG/	.	8G/	.	8.bn\J	.	8.bbn\J	.
16GG/Jk	.	16G/Jk	.	.	.	.	.
=89	=89	=89	=89	=89	=89	=89	=89
16CC/	ff	16C/ 16c/	ff	8cc\	ff	16ccc'\LL	ff
(16CC/LL	.	(16C/LL	.	.	.	(16c\	.
16DD/)	.	16D/)	.	8r	.	16d\)	.
(16EE/JJ	.	(16E/JJ	.	.	.	(16e\JJ	.
16FF/LL)	.	16F/LL)	.	16r	.	16f/LL)	.
(16GG/	.	(16G/	.	(16G/LL	.	(16g/	.
16AA/)	.	16A/)	.	16A/)	.	16a/)	.
(16BBn/JJ	.	(16Bn/JJ	.	(16Bn/JJ	.	(16bn/JJ	.
=90	=90	=90	=90	=90	=90	=90	=90
16C\LL)	.	16c\LL)	.	16c/LL)	.	16cc\LL)	.
(16D\	.	(16d\	.	(16d/	.	(16dd\	.
16E\)	.	16e\)	.	16e/)	.	16ee\)	.
(16F\JJ	.	(16f\JJ	.	(16f/JJ	.	(16ff\JJ	.
16G\LL)	.	16g\LL)	.	16g/LL)	.	16gg\LL)	.
(16A\	.	(16A\	.	(16a/	.	(16aa\	.
16Bn\)	.	16Bn\)	.	16bn/)	.	16bbn\)	.
(16c\JJ	.	(16c\JJ	.	(16cc/JJ	.	(16ccc\JJ	.
=91	=91	=91	=91	=91	=91	=91	=91
16d\LL)	.	16d\LL)	.	16dd\LL)	.	16ddd\LL)	.
(16E\	.	(16e\	.	(16ee\	.	(16eee\	.
16F\)	.	16f\)	.	16ff\)	.	16fff\)	.
(16E'\JJ	.	(16g'\JJ	.	(16gg'\JJ	.	(16ggg'\JJ	.
8F'\L)	.	8a'\L)	.	8aa'\L)	.	8aaa'\L)	.
8G'\J	.	8G'\J 8f'\	.	8dd'\J 8bbn'\	.	8bbbn'\J	.
=92	=92	=92	=92	=92	=92	=92	=92
16C/LL	.	16G/LL 16e/	.	16ee\LL 16ccc\	.	16cccc\LL	.
(16C/	.	(16E/	.	(16eee\	.	(16ggg\	.
16BBn/)	.	16D/)	.	16fff\)	.	16aaa\)	.
(16D/JJ	.	(16F/JJ	.	(16ddd\JJ	.	(16fff\JJ	.
16C/LL)	.	16E/LL)	.	16eee\LL)	.	16ggg\LL)	.
(16C/	.	(16E/	.	(16ccc\	.	(16eee\	.
16BB/)	.	16D/)	.	16ddd\)	.	16fff\)	.
(16D/JJ	.	(16F/JJ	.	(16bbn\JJ	.	(16ddd\JJ	.
=93	=93	=93	=93	=93	=93	=93	=93
16C\LL)	.	16E/LL)	.	16ccc\LL)	.	16eee\LL)	.
(16E\	.	(16G/	.	(16ee\	.	(16ccc\	.
16D\)	.	16F/)	.	16ff\)	.	16ddd\)	.
(16F\JJ	.	(16A-/JJ	.	(16dd\JJ	.	(16bbn\JJ	.
16E\LL)	>	16G/LL)	>	16ee\LL)	>	16ccc\LL)	>
(16E\	.	(16c/	.	(16ee\	.	(16gg\	.
16D\)	.	16Bn/)	.	16ff\)	.	16aa\)	.
(16F\JJ	.	(16d/JJ	.	(16dd\JJ	.	(16ff\JJ	.
=94	=94	=94	=94	=94	=94	=94	=94
16E\LL)	.	16c\LL)	.	16ee\LL)	.	16gg\LL)	.
(16G\	.	(16e\	.	(16cc\	.	(16ee\	.
16F\)	.	16d\)	.	16dd\)	.	16ff\)	.
(16A-\JJ	.	(16f\JJ	.	(16bn\JJ	.	(16dd\JJ	.
16G\LL)	.	16e\LL)	.	16cc\LL)	.	16ee\LL)	.
(16c\	.	(16e\	.	(16ee\	.	(16cc\	.
16Bn\)	.	16d\)	.	16ff\)	.	16dd\)	.
(16d\JJ	.	(16f\JJ	.	(16dd\JJ	.	(16bn\JJ	.
=95	=95	=95	=95	=95	=95	=95	=95
16c\LL)	.	16e\LL)	.	16ee\LL)	.	16cc\LL)	.
(16e\	.	(16g\	.	(16dd\	.	(16bn\	.
16d\)	.	16f\)	.	16ff\)	.	16dd\)	.
(16f\JJ	.	(16a-\JJ	.	(16dd\JJ	.	(16b\JJ	.
16e\LL)	.	16g\LL)	.	16ee\LL)	.	16cc\LL)	.
(16e\	.	(16g\	.	(16dd\	.	(16b\	.
16d\)	.	16f\)	.	16ff\)	.	16dd\)	.
(16f\JJ	.	(16a-\JJ	.	(16dd\JJ	.	(16b\JJ	.
=96	=96	=96	=96	=96	=96	=96	=96
16e\LL)	p	16g\LL)	p	16ee\LL)	p	16cc\LL)	p
16c\	>	(16d\	>	(16f\	>	(16bn\	>
16c\	.	16f\	.	16a-\	.	16dd\	.
16c\JJ	.	16d\JJ	.	16f\JJ	.	16b\JJ	.
16c\LL	.	16e\LL	.	16g/LL	.	16cc\LL	.
16c\	.	16d\	.	16f/	.	16b\	.
16c\	.	16f\	.	16a-/	.	16dd\	.
16c\JJ	.	16d\JJ	.	16f/JJ	.	16b\JJ	.
=97	=97	=97	=97	=97	=97	=97	=97
16c\LL	.	16e\LL	.	16g/LL	.	16cc\LL	.
16c\	.	16d\	.	16f/	.	16bn\	.
16c\	.	16f\	.	16a-/	.	16dd\	.
16c\JJ	.	16d\JJ	.	16f/JJ	.	16b\JJ	.
16c\LL	.	16e\LL	.	16g/LL	.	16cc\LL	.
16c\	.	16d\	.	16f/	.	16b\	.
16c\	.	16f\	.	16a-/	.	16dd\	.
16c\JJ	.	16d\JJ)	.	16f/JJ)	.	16b\JJ)	.
=98	=98	=98	=98	=98	=98	=98	=98
8c\	pp	8e\	pp	8g/	pp	[2cc\	pp
8r	.	8r	.	8r	.	.	.
4r	.	4r	.	4r	.	.	.
=99	=99	=99	=99	=99	=99	=99	=99
2r	.	2r	.	2r	.	2cc\]	.
=100:|!	=100:|!	=100:|!	=100:|!	=100:|!	=100:|!	=100:|!	=100:|!
*>B	*>B	*>B	*>B	*>B	*>B	*>B	*>B
(4FF#/	p	(4F#/	p	2r	.	[2cc\	Xpp
8EE/L	.	8E/L	.	.	.	.	.
16FF#/L	.	16F#/L	.	.	.	.	.
16GG/JJ)	.	16G/JJ)	.	.	.	.	.
=101	=101	=101	=101	=101	=101	=101	=101
8AA'/L	.	8A'/L	.	4r	.	2cc\_	.
8AA'/J	.	8A'/J	.	.	.	.	.
8GG'/L	.	8G'/L	.	(8e/L	p	.	.
8GG'/J	.	8G'/J	.	16f#/L	.	.	.
.	.	.	.	16g/JJ)	.	.	.
=102	=102	=102	=102	=102	=102	=102	=102
8FF#/L	<	8F#/L	<	8a'/L	<	2cc\_	<
8FF#/J	.	8F#/J	.	8a'/J	.	.	.
(8GG/L	.	(8G/L	.	8g'/L	.	.	.
16AA/L	.	16A/L	.	8g'/J	.	.	.
16BB-/JJ)	.	16B-/JJ)	.	.	.	.	.
=103	=103	=103	=103	=103	=103	=103	=103
8C/L	.	8c\L	.	8f#'/L	.	2cc\_	.
8C/J	.	8c\J	.	8f#'/J	.	.	.
8BB-/L	.	8B-/L	.	(8g/L	.	.	.
8BB-/J	.	8B-/J	.	16a/L	.	.	.
.	.	.	.	16b-/JJ)	.	.	.
=104	=104	=104	=104	=104	=104	=104	=104
8AA/L	.	8A/L	.	8cc\L	.	2cc\]	.
8AA/J	.	8A/J	.	8cc\J	.	.	.
(8BB-/L	.	(8B-\L	.	(8b-/L	.	.	.
16C/L	.	16c\L	.	16a/L	.	.	.
16D/JJ)	.	16d\JJ)	.	16g/JJ)	.	.	.
=105	=105	=105	=105	=105	=105	=105	=105
8E-\L	f>	8e-\L	f>	(8f#/L	f>	4cc\	f>
8D\J	.	8d\J	.	16g/L	.	.	.
.	.	.	.	16a/JJ)	.	.	.
.	.	.	.	.	.	bnq/LL	.
.	.	.	.	.	.	ccq/JJ	.
(8C/L	.	(8c/L	.	(8d/L	.	(8dd\L	.
16BB-/L	.	16B-/L	.	16e/L	.	16ee\L	.
16AA/JJ)	.	16A/JJ)	.	16f#/JJ)	.	16ff#\JJ)	.
=106	=106	=106	=106	=106	=106	=106	=106
(16GG/LL	p	8G/	p	4g/	p	(4gg\	p
16BB-/)	.	.	.	.	.	.	.
(16BB-/	.	4D/	.	.	.	.	.
16D/JJ)	.	.	.	.	.	.	.
(16FF#/LL	.	.	.	4r	.	8ddd\L)	.
16AA/)	.	.	.	.	.	.	.
(16AA/	.	[8D/	.	.	.	16ddd\L	.
16D/JJ)	.	.	.	.	.	16ccc\JJ	.
=107	=107	=107	=107	=107	=107	=107	=107
(16GG/LL	.	8D/]	.	4r	.	4bb-\	.
16BB-/)	.	.	.	.	.	.	.
(16BB-/	.	4d\	.	.	.	.	.
16D/JJ)	.	.	.	.	.	.	.
(16FF#/LL	.	.	.	8dd\L	p	4r	.
16AA/)	.	.	.	.	.	.	.
(16AA/	.	[8d\	.	16dd\L	.	.	.
16D/JJ)	.	.	.	16cc'\JJ	.	.	.
=108	=108	=108	=108	=108	=108	=108	=108
(16GG/LL	.	8d\]	.	4b-\	.	8r	<
16BB-/)	.	.	.	.	.	.	.
(16BB-/	.	4D/	.	.	.	16r	.
16D/JJ)	.	.	.	.	.	(16dd\	.
(16FF#/LL	.	.	.	4r	.	8.ddd\L	>
16AA/)	.	.	.	.	.	.	.
(16AA/	.	[8D/	.	.	.	.	.
16D/JJ)	.	.	.	.	.	16ccc\Jk)	.
=109	=109	=109	=109	=109	=109	=109	=109
(16GG/LL	.	8D/]	.	8r	<	4bb-\	Xp
16BB-/)	.	.	.	.	.	.	.
(16BB-/	.	4d\	.	16r	.	.	.
16D/JJ)	.	.	.	(16d/LK	.	.	.
(16FF#/LL	.	.	.	8.dd/	>	4r	.
16AA/)	.	.	.	.	.	.	.
(16AA/	.	[8d\	.	.	.	.	.
16D/JJ)	.	.	.	16cc/Jk)	.	.	.
=110	=110	=110	=110	=110	=110	=110	=110
4GG/	.	8d/L]	.	(16cc\LL	.	4r	.
.	.	.	.	16b-\)	.	.	.
.	.	16G'/L	.	16b-'\	.	.	.
.	.	16A'/JJ	.	16a'\JJ	.	.	.
4r	.	(16A/LL	.	(16a/LL	.	8r	.
.	.	16B-/)	.	16g/)	.	.	.
.	.	16B-'/	.	16d'/	.	16gg'\LL	.
.	.	16c'/JJ	.	16e-'/JJ	.	16ff#'\JJ	.
=111	=111	=111	=111	=111	=111	=111	=111
2r	>	(16c/LL	>	(16e-/LL	>	(16ff#\LL	>
.	.	16B-/)	.	16d/)	.	16gg\)	.
.	.	16B-'/	.	16d'/	.	16gg'\	.
.	.	16Bn'/JJ	.	16d'/JJ	.	16ffn'\JJ	.
.	.	(16B\LL	.	(16d/LL	.	(16ff\LL	.
.	.	16c\)	.	16e-/)	.	16ee-\)	.
.	.	16c'\	.	16e-'/	.	16ee-'\	.
.	.	16d'\JJ	.	16fn'/JJ	.	16dd'\JJ	.
=112	=112	=112	=112	=112	=112	=112	=112
4r	.	(16d\LL	pp	(16f/LL	pp	(16dd\LL	pp
.	.	16e-\)	.	16g/)	.	16cc\)	.
.	.	16e-'\	.	16g'/	.	16cc'\	.
.	.	16f'\JJ	.	16a-'/JJ	.	16bn'\JJ	.
8r	.	(16f\LL	.	(16a-/LL	.	(16b\LL	.
.	.	16e-\JJ)	.	16g/JJ)	.	16cc\JJ)	.
16E-'\LL	pp	8r	.	8r	.	8r	.
16D-'\JJ	.	.	.	.	.	.	.
=113	=113	=113	=113	=113	=113	=113	=113
(16D-/LL	.	2r	.	2r	.	4r	.
16C/)	.	.	.	.	.	.	.
16C'/	.	.	.	.	.	.	.
16BB-'/JJ	.	.	.	.	.	.	.
(16BB-/LL	.	.	.	.	.	8r	.
16AA-/)	.	.	.	.	.	.	.
16AA-'/	.	.	.	.	.	16eee-'\LL	.
16GG'/JJ	.	.	.	.	.	16ddd-'\JJ	.
=114	=114	=114	=114	=114	=114	=114	=114
(4AA-/	.	[2E-/	.	(16a-\LL	.	(16ddd-\LL	.
.	.	.	.	16cc\)	.	16ccc\)	.
.	.	.	.	(16cc\	.	16ccc'\	.
.	.	.	.	16ee-\JJ)	.	16bb-'\JJ	.
8E-'\L)	.	.	.	(16g\LL	.	(16bb-\LL	.
.	.	.	.	16b-\)	.	16aa-\)	.
16E-'\L	.	.	.	(16b-\	.	16aa-'\	.
16D-'\JJ	.	.	.	16ee-\JJ)	.	16gg'\JJ	.
=115	=115	=115	=115	=115	=115	=115	=115
(4C/	.	2E-/_	.	(16a-\LL	.	(4aa-\	.
.	.	.	.	16cc\)	.	.	.
.	.	.	.	(16cc\	.	.	.
.	.	.	.	16ee-\JJ)	.	.	.
4GG/)	.	.	.	(16b-\LL	.	8eee-\L)	.
.	.	.	.	16dd-\)	.	.	.
.	.	.	.	(16dd-\	.	16eee-'\L	.
.	.	.	.	16ee-\JJ)	.	16ddd-'\JJ	.
=116	=116	=116	=116	=116	=116	=116	=116
8.AA-/L	.	2E-/_	.	(16a-\LL	.	(4ccc\	.
.	.	.	.	16cc\)	.	.	.
.	.	.	.	(16cc\	.	.	.
(16EE-/Jk	.	.	.	16ee-\JJ)	.	.	.
8.E-\L	v	.	.	(16g\LL	.	4gg\)	.
.	.	.	.	16b-\)	.	.	.
.	.	.	.	(16b-\	.	.	.
16D-\Jk)	.	.	.	16ee-\JJ)	.	.	.
=117	=117	=117	=117	=117	=117	=117	=117
(4C/	p	2E-/_	.	(16a-\LL	.	8.aa-\L	.
.	.	.	.	16cc\)	.	.	.
.	.	.	.	(16cc\	.	.	.
.	.	.	.	16ee-\JJ)	.	(16ee-\Jk	.
4GG/)	.	.	.	(16b-\LL	Xmpv>	8.eee-\L	Xmpv>
.	.	.	.	16dd-\)	.	.	.
.	.	.	.	(16dd-\	.	.	.
.	.	.	.	16ee-\JJ)	.	16ddd-\Jk)	.
=118	=118	=118	=118	=118	=118	=118	=118
(16AA-/LL	p	8E-/]	p	4cc\	p	(16ddd-\LL	p
16E-/)	<	.	<	.	.	16ccc\)	<
16E-'/	.	4e-\	.	.	.	16ccc'\	.
16D-'/JJ	.	.	.	.	.	16bb-'\JJ	.
(16D-/LL	.	.	.	4r	.	(16bb-\LL	.
16C/)	.	.	.	.	.	16aa-\)	.
16C'/	.	16E-'/LL	.	.	.	16aa-'\	.
16BB-'/JJ	.	16D-'/JJ	.	.	.	16gg-'\JJ	.
=119	=119	=119	=119	=119	=119	=119	=119
(16BB-/LL	.	(16D-/LL	.	8r	.	(16gg-\LL	.
16AA/)	.	16C/)	.	.	.	16ff\)	.
16AA'/	.	16A'/	.	16cc'\LL	.	16ff'\	.
16GG-'/JJ	.	16B-'/JJ	.	16b-'\JJ	.	16ee'\JJ	.
(16GG-/LL	.	(16A/LL	.	(16b-/LL	.	(16ee\LL	.
16FF/)	.	16B-/JJ)	.	16a/JJ)	.	16ff\)	.
16AA'/	.	[8F/	.	8r	.	16fff'\	.
16C'/JJ	.	.	.	.	.	16eee-'\JJ	.
=120	=120	=120	=120	=120	=120	=120	=120
(16C/LL	.	8F/]	.	2r	.	(16eee-\LL	.
16BB-/)	.	.	.	.	.	16ddd-\)	.
16BB-'/	.	4f\	.	.	.	16ddd-'\	.
16E-'/JJ	.	.	.	.	.	16ccc'\JJ	.
(16E-\LL	.	.	.	.	.	(16ccc\LL	.
16D-\)	.	.	.	.	.	16bb-\)	.
16D-'\	.	16F'/LL	.	.	.	16bb-'\	.
16C'\JJ	.	16E-'/JJ	.	.	.	16aa-'\JJ	.
=121	=121	=121	=121	=121	=121	=121	=121
(16C/LL	.	(16E-/LL	.	8r	.	(16aa-\LL	.
16BBn/)	.	16D/)	.	.	.	16gg\)	.
16BB'/	.	16Bn'/	.	16dd'\LL	.	16gg'\	.
16AA-'/JJ	.	16c'/JJ	.	16cc'\JJ	.	16ff#'\JJ	.
(16AA-/LL	.	(16B/LL	.	(16cc\LL	.	(16ff#\LL	.
16GG/)	.	16c/J)	.	16bn\JJ)	.	16gg\)	.
16BB'/	.	[8G/J	.	8r	.	16ggg'\	.
16D'/JJ	.	.	.	.	.	16fff'\JJ	.
=122	=122	=122	=122	=122	=122	=122	=122
(16D\LL	.	8G/]	.	4r	.	(16fff\LL	.
16C\)	.	.	.	.	.	16eee-\)	.
16C'\	.	4g\	.	.	.	16eee-'\	.
16F'\JJ	.	.	.	.	.	16ddd'\JJ	.
(16F\LL	.	.	.	8r	.	(16ddd\LL	.
16En\)	.	.	.	.	.	16ddd-\)	.
16E'\	.	16e'\LL	.	16gg'\LL	.	16ddd-'\	.
16Dn'\JJ	.	16f'\JJ	.	16ff'\JJ	.	16bb-'\JJ	.
=123	=123	=123	=123	=123	=123	=123	=123
(16D/LL	f	8g\	f	8ee\	f	(16bb-\LL	f
16C#/)	.	.	.	.	.	16aa\)	.
16C#'/	.	16c#'\LL	.	16ee'\LL	.	16aa'\	.
16AA'/JJ	.	16a'\JJ	.	16cc#'\JJ	.	16gg'\JJ	.
(16AA/LL	.	(16a\LL	.	(16cc#\LL	.	(16gg\LL	.
16D/)	.	16a\)	.	16dd\)	.	16ff\)	.
16DD'/	.	16a'\	.	16dd'\	.	16ff'\	.
16EE'/JJ	.	16g'\JJ	.	16cc#'\JJ	.	16ee'\JJ	.
=124	=124	=124	=124	=124	=124	=124	=124
(16EE/LL	.	(16g\LL	.	(16cc#\LL	.	(16ee\LL	.
16FF/)	.	16f\)	.	16a\)	.	16dd\)	.
16FF'/	.	16f'\	.	16a'\	.	16dd'\	.
16FF#'/JJ	.	16e-'\JJ	.	16a'\JJ	.	16cc'\JJ	.
(16FF#/LL	.	(16e-\LL	.	(16a/LL	.	(16cc\LL	.
16GG/)	.	16d\)	.	16g/)	.	16b-\)	.
16GG'/	.	16d'\	.	16g'/	.	16b-'\	.
16AA'/JJ	.	16d'\JJ	.	16f'/JJ	.	16a'\JJ	.
=125	=125	=125	=125	=125	=125	=125	=125
(16AA/LL	.	8d\L	.	(16f/LL	.	(16a/LL	.
16BB-/)	.	.	.	16e/)	.	16g#/)	.
16BB-'/	.	16d'\L	.	16e/	.	16g#'/	.
16AA'/JJ	.	16c#'\JJ	.	16e/JJ	.	16a'/JJ	.
(16AA/LL	.	(16c#\LL	.	8e/L	.	(16a/LL	.
16BB-/)	.	16d\)	.	.	.	16g#/)	.
16BB-'/	.	16d'\	.	16e/L	.	16g#'/	.
16AA'/JJ	.	16c#'\JJ	.	16e/JJ	.	16a'/JJ	.
=126	=126	=126	=126	=126	=126	=126	=126
(16AA/LL	.	(16c#\LL	.	8e/L	.	(16a/LL	.
16BB-/)	.	16d\)	.	.	.	16g#/)	.
16BB-'/	.	16d'\	.	16e/L	.	16g#'/	.
16AA'/JJ	.	16c#'\JJ	.	16e/JJ	.	16a'/JJ	.
(16AA/LL	.	(16c#\LL	.	8e/L	.	(16a/LL	.
16BB-/)	.	16d\)	.	.	.	16g#/)	.
16BB-'/	.	16d'\	.	16e/L	.	16g#'/	.
16AA'/JJ	.	16c#'\JJ	.	16e/JJ	.	16a'/JJ	.
=127	=127	=127	=127	=127	=127	=127	=127
(16BB-/LL	v	(16D/LL	v	(16d/LL	v	(16g#/LL	v
16AA/)	.	16E/)	.	16c#/)	.	16a/)	.
16AA'/	.	16E'/	.	16c#'/	.	16a'/	.
16BB-'/JJ	.	16D'/JJ	.	16d'/JJ	.	16g#'/JJ	.
(16BB-/LL	v	(16D/LL	v	(16d/LL	v	(16g#/LL	v
16AA/)	.	16E/)	.	16c#/)	.	16a/)	.
16AA'/	.	16E'/	.	16c#'/	.	16a'/	.
16BB-'/JJ	.	16D'/JJ	.	16d'/JJ	.	16g#'/JJ	.
=128	=128	=128	=128	=128	=128	=128	=128
(16BB-/LL	v	(16D/LL	v	(16d/LL	v	(16g#/LL	v
16AA/)	.	16E/)	.	16c#/)	.	16a/)	.
16AA'/	.	16E'/	.	16c#'/	.	16a'/	.
16BB-'/JJ	.	16D'/JJ	.	16d'/JJ	.	16g#'/JJ	.
(16BB-/LL	v	(16D/LL	v	(16d/LL	v	(16g#/LL	v
16AA/)	.	16E/)	.	16c#/)	.	16a/)	.
16AA'/	.	16E'/	.	16c#'/	.	16a'/	.
16BB-'/JJ	.	16D'/JJ	.	16d'/JJ	.	16g#'/JJ	.
=129	=129	=129	=129	=129	=129	=129	=129
(16AA/LL	ff	[2E/	ff	[2c#/	ff	[2a/	ff
16GG#/)	<	.	<	.	<	.	<
16GG#'/	.	.	.	.	.	.	.
16AA'/JJ	.	.	.	.	.	.	.
(16AA/LL	.	.	.	.	.	.	.
16GG#/)	.	.	.	.	.	.	.
16GG#'/	.	.	.	.	.	.	.
16AA'/JJ	.	.	.	.	.	.	.
=130	=130	=130	=130	=130	=130	=130	=130
(16AA/LL	.	2E/_	.	2c#/_	.	2a/_	.
16GG#/)	.	.	.	.	.	.	.
16GG#'/	.	.	.	.	.	.	.
16AA'/JJ	.	.	.	.	.	.	.
(16AA/LL	.	.	.	.	.	.	.
16GG#/)	.	.	.	.	.	.	.
16GG#'/	.	.	.	.	.	.	.
16AA'/JJ	.	.	.	.	.	.	.
=131	=131	=131	=131	=131	=131	=131	=131
(16AA/LL	p	(4E/]	p	4c#/]	p	2a/_	p
16GG#/)	.	.	.	.	.	.	.
16GG#'/	.	.	.	.	.	.	.
16AA'/JJ	.	.	.	.	.	.	.
(16AA/LL	.	8A'/L)	.	8c#'/L	.	.	.
16GG#/)	.	.	.	.	.	.	.
16GG#'/	.	16A'/L	.	16c#'/L	.	.	.
16AA'/JJ	.	16G'/JJ	.	16e'/JJ	.	.	.
=132	=132	=132	=132	=132	=132	=132	=132
(16AA/LL	.	(4F/	.	(4d/	.	(4a/]	.
16GG#/)	.	.	.	.	.	.	.
16GG#'/	.	.	.	.	.	.	.
16AA'/JJ	.	.	.	.	.	.	.
(16AA/LL	.	8C#'/L)	.	8a'/L)	.	8aa'\L)	.
16GG#/)	.	.	.	.	.	.	.
16GG#'/	.	16C#'/L	.	16a'/L	.	16aa'\L	.
16AA'/JJ	.	16E'/JJ	.	16g'/JJ	.	16gg'\JJ	.
=133	=133	=133	=133	=133	=133	=133	=133
(16AA/LL	.	(8.D/L	<	(8.f/L	<	4ff\	.
16GG#/)	.	.	.	.	.	.	.
16GG#'/	.	.	.	.	.	.	.
16AA'/JJ	.	16F/Jk	.	16d/Jk	.	.	.
(16AA/LL	.	8.A/L	>	8.c#/L	>	4r	.
16GG#/)	.	.	.	.	.	.	.
16GG#'/	.	.	.	.	.	.	.
16AA'/JJ	.	16G/Jk)	.	16e/Jk)	.	.	.
=134	=134	=134	=134	=134	=134	=134	=134
(16AA/LL	.	(8.F/L	<	(8.d/L	<	8r	<
16GG#/)	.	.	.	.	.	.	.
16GG#'/	.	.	.	.	.	16r	.
16AA'/JJ	.	16D/Jk	.	16f/Jk	.	(16ff\	.
(16AA/LL	.	8.C#/L	>	8.a/L	>	8.aa\L	>
16GG#/)	.	.	.	.	.	.	.
16GG#'/	.	.	.	.	.	.	.
16AA'/JJ	.	16E/Jk)	.	16g/Jk)	.	16gg\Jk)	.
=135	=135	=135	=135	=135	=135	=135	=135
(16BB-/LL	.	(4D/	Xp	(4f/	Xp	4ff\	Xp
16AA/)	.	.	.	.	.	.	.
16BB-'/	.	.	.	.	.	.	.
16BB-'/JJ	.	.	.	.	.	.	.
(16BB-/LL	.	8B-/L)	.	8d/L)	.	4r	.
16AA/)	.	.	.	.	.	.	.
16BB-'/	.	16B-'/L	.	16d'/L	.	.	.
16BB-'/JJ	.	16A-'/JJ	.	16f'/JJ	.	.	.
=136	=136	=136	=136	=136	=136	=136	=136
(16BB-/LL	.	(4G/	.	(4e-/	.	4r	.
16AA/)	.	.	.	.	.	.	.
16BB-'/	.	.	.	.	.	.	.
16BB-'/JJ	.	.	.	.	.	.	.
(16BB-/LL	.	8D/L)	.	8b-/L)	.	8bb-\L	.
16AA/)	.	.	.	.	.	.	.
16BB-'/	.	16D'/L	.	16b-'/L	.	16bb-'\L	.
16BB-'/JJ	.	16F'/JJ	.	16a-'/JJ	.	16aa-'\JJ	.
=137	=137	=137	=137	=137	=137	=137	=137
(16BB-/LL	.	(8.E-/L	<	(8.g/L	<	4gg\	.
16AA/)	.	.	.	.	.	.	.
16BB-'/	.	.	.	.	.	.	.
16BB-'/JJ	.	16G/Jk	.	16e-/Jk	.	.	.
(16BB-/LL	.	8.B-/L	>	8.d/L	>	4r	.
16AA/)	.	.	.	.	.	.	.
16BB-'/	.	.	.	.	.	.	.
16BB-'/JJ	.	16A-/Jk)	.	16f/Jk)	.	.	.
=138	=138	=138	=138	=138	=138	=138	=138
(16BB-/LL	.	(8.G/L	<	(8.e-/L	<	8r	<
16AA/)	.	.	.	.	.	.	.
16BB-'/	.	.	.	.	.	16r	.
16BB-'/JJ	.	16E-/Jk	.	16g/Jk	.	(16gg\LK	.
(16BB-/LL	.	8.D/L	>	8.b-/L	>	8.bb-\	>
16AA/)	.	.	.	.	.	.	.
16AA'/	.	.	.	.	.	.	.
16BBn'/JJ	.	16F/Jk)	.	16a-/Jk)	.	16aa-\Jk)	.
=139	=139	=139	=139	=139	=139	=139	=139
(16C/LL	<	8.E/L	<	8.g/L	<	8.gg\L	<
16BBn/)	.	.	.	.	.	.	.
16BB'/	.	.	.	.	.	.	.
16C'/JJ	.	16E/Jk	.	16g/Jk	.	16gg\Jk	.
(16C/LL	.	(8.E/L	.	(8.cc\L	.	(8.ccc\L	.
16BB/)	.	.	.	.	.	.	.
16BB'/	.	.	.	.	.	.	.
16C'/JJ	.	16G/Jk)	.	16b-\Jk)	.	16bb-\Jk)	.
=140	=140	=140	=140	=140	=140	=140	=140
(16C/LL	.	(8.G/L	.	(8.cc\L	.	(8.ccc\L	.
16BBn/)	.	.	.	.	.	.	.
16BB'/	.	.	.	.	.	.	.
16C'/JJ	.	16c/Jk)	.	16b-\Jk)	.	16bb-\Jk)	.
16C/LL	.	(16c\LL	.	(16cc\LL	.	(16ccc\LL	.
16C/	.	16e\)	.	16b-\)	.	16bb-\)	.
16C/	.	(16e\	.	(16cc\	.	(16ccc\	.
16C/JJ	.	16g\JJ)	.	16b-\JJ)	.	16bb-\JJ)	.
=141	=141	=141	=141	=141	=141	=141	=141
16C#'\LL	f	16g'\LL	f	8.a\L	f	8.aa\L	f
16A'\J	.	16g'\J	.	.	.	.	.
[8A\J	.	[8g\J	.	.	.	.	.
.	.	.	.	16ee'\Jk	.	16ccc#'\Jk	.
16A\LL]	.	16g\LL]	.	8.ee\L	.	8.ccc#\L	.
16A\J	.	16g\J	.	.	.	.	.
[8A\J	.	[8g\J	.	.	.	.	.
.	.	.	.	16ccc#'\Jk	.	16eee'\Jk	.
=142	=142	=142	=142	=142	=142	=142	=142
16A\LL]	.	16g\LL]	.	8.ccc#\L	.	8.eee\L	.
16A\J	.	16c#\J	.	.	.	.	.
[8A\J	.	[8c#\J	.	.	.	.	.
.	.	.	.	16eee'\Jk	.	16ggg'\Jk	.
16A\LL]	.	16c#\LL]	.	(16eee\LL	.	(16ggg\LL	.
16A\	.	16c#\	.	16ccc#\)	.	16eee\)	.
16A\	.	16c#\	.	16gg'\	.	16ccc#'\	.
16A\JJ	.	16c#\JJ	.	16ee'\JJ	.	16gg'\JJ	.
=143	=143	=143	=143	=143	=143	=143	=143
16D\LL	.	16f\LL	.	8.dd\L	.	8.ff\L	.
16d\J	.	16f\J	.	.	.	.	.
[8d\J	.	[8f\J	.	.	.	.	.
.	.	.	.	16ff\Jk	.	16aa\Jk	.
16d\LL]	.	16f\LL]	.	8.ff\L	.	8.aa\L	.
16d\J	.	16f\J	.	.	.	.	.
[8d\J	.	[8f\J	.	.	.	.	.
.	.	.	.	16aa\Jk	.	16ddd\Jk	.
=144	=144	=144	=144	=144	=144	=144	=144
16d\LL]	.	16f\LL]	.	8.aa\L	.	8.ddd\L	.
16d\J	.	16f\J	.	.	.	.	.
[8d\J	.	[8f\J	.	.	.	.	.
.	.	.	.	16ddd\Jk	.	16fff\Jk	.
16d\LL]	.	16f\LL]	.	8.ddd\L	.	8.fff\L	.
16d\	.	16f\	.	.	.	.	.
16d\	.	16f\	.	.	.	.	.
16d\JJ	.	16f\JJ	.	16aa\Jk	.	16aaa\Jk	.
=145	=145	=145	=145	=145	=145	=145	=145
16G/LL	.	16g\LL	.	8.bb-\L	.	8.bbb-\L	.
16GG/J	.	16B-\J	.	.	.	.	.
[8GG/J	.	[8B-\J	.	.	.	.	.
.	.	.	.	16ee-\Jk	.	16eee-\Jk	.
16GG/LL]	.	16B-/LL]	.	8.ee-\L	.	8.eee-\L	.
16GG/J	.	16B-/J	.	.	.	.	.
[8GG/J	.	[8B-/J	.	.	.	.	.
.	.	.	.	16gg\Jk	.	16ggg\Jk	.
=146	=146	=146	=146	=146	=146	=146	=146
16GG/LL]	.	16B-/LL]	.	8.gg\L	.	8.ggg\L	.
16AA/J	.	16G/J	.	.	.	.	.
[8AA/J	.	[8G/J	.	.	.	.	.
.	.	.	.	16cc#\Jk	.	16ccc#\Jk	.
16AA/LL]	.	16G/LL]	.	8.cc#\L	.	8.ccc#\L	.
16E/	.	16G/	.	.	.	.	.
16E/	.	16G/	.	.	.	.	.
16E/JJ	.	16G/JJ	.	16cc#\Jk	.	16aaa\Jk	.
=147	=147	=147	=147	=147	=147	=147	=147
8.E\L	.	8.G/L	.	16cc#\LL	.	16aaa\LL	.
.	.	.	.	16gg\J	.	16aaa\J	.
.	.	.	.	[8gg\J	.	[8aaa\J	.
16G\Jk	.	16c#/Jk	.	.	.	.	.
8.G\L	.	8.c#\L	.	16gg\LL]	.	16aaa\LL]	.
.	.	.	.	16gg\J	.	16aaa\J	.
.	.	.	.	[8gg\J	.	[8aaa\J	.
16c#\Jk	.	16e\Jk	.	.	.	.	.
=148	=148	=148	=148	=148	=148	=148	=148
8.c#\L	.	8.e\L	.	16gg\LL]	.	16aaa\LL]	.
.	.	.	.	16gg\J	.	16aaa\J	.
.	.	.	.	[8gg\J	.	[8aaa\J	.
16e\Jk	.	16g\Jk	.	.	.	.	.
16g\LL	.	(16g\LL	.	16gg\LL]	.	16aaa\LL]	.
16e\	.	16e\)	.	16gg\	.	16aaa\	.
16A'\	.	16c#'\	.	16gg\	.	16aaa\	.
16E'\JJ	.	16G'\JJ	.	16cc#\JJ	.	16aaa\JJ	.
=149	=149	=149	=149	=149	=149	=149	=149
8.D\L	.	8.F/L	.	16dd\LL	.	16aaa\LL	.
.	.	.	.	16ff\J	.	16aaa\J	.
.	.	.	.	[8ff\J	.	[8aaa\J	.
16F'\Jk	.	16A'/Jk	.	.	.	.	.
8.F\L	.	8.A/L	.	16ff\LL]	.	16aaa\LL]	.
.	.	.	.	16ff\J	.	16aaa\J	.
.	.	.	.	[8ff\J	.	[8aaa\J	.
16A'\Jk	.	16d'/Jk	.	.	.	.	.
=150	=150	=150	=150	=150	=150	=150	=150
8.A\L	.	8.d\L	.	16ff\LL]	.	16aaa\LL]	.
.	.	.	.	16ff\J	.	16aaa\J	.
.	.	.	.	[8ff\J	.	[8aaa\J	.
16d'\Jk	.	16f'\Jk	.	.	.	.	.
(16d\LL	.	8.f\L	.	16ff\LL]	.	16aaa\LL]	.
16A\)	.	.	.	16ff\J	.	16aaa\J	.
16F'\	.	.	.	[8ff\J	.	[8aaa\J	.
16D'\JJ	.	16a'\Jk	.	.	.	.	.
=151	=151	=151	=151	=151	=151	=151	=151
8.G\L	.	8.b-\L	.	16ff\LL]	.	16aaa\LL]	.
.	.	.	.	16ee\J	.	16ggg\J	.
.	.	.	.	[8ee\J	.	[8ggg\J	.
16G\Jk	.	16e\Jk	.	.	.	.	.
8.G\L	.	8.e\L	.	16ee\LL]	.	16ggg\LL]	.
.	.	.	.	16ee\J	.	16ggg\J	.
.	.	.	.	[8ee\J	.	[8ggg\J	.
16G\Jk	.	16g\Jk	.	.	.	.	.
=152	=152	=152	=152	=152	=152	=152	=152
8.A\L	.	8.g\L	.	16ee\LL]	.	16ggg\LL]	.
.	.	.	.	16ee\J	.	16ggg\J	.
.	.	.	.	[8ee\J	.	[8ggg\J	.
16AA\Jk	.	16c#\Jk	.	.	.	.	.
8.AA/L	.	8.c#\L	.	16ee\LL]	.	16ggg\LL]	.
.	.	.	.	16ee\J	.	16ggg\J	.
.	.	.	.	[8ee\J	.	[8ggg\J	.
16AA/Jk	.	16e\Jk	.	.	.	.	.
=153	=153	=153	=153	=153	=153	=153	=153
8.D/L	.	8.f\L	.	16ee\LL]	.	16ggg\LL]	.
.	.	.	.	16dd\J	.	16fff\J	.
.	.	.	.	[8dd\J	.	[8fff\J	.
16C/Jk	.	16a\Jk	.	.	.	.	.
8.BB-/L	.	8.d\L	.	16dd\LL]	.	16fff\LL]	.
.	.	.	.	16dd\J	.	16fff\J	.
.	.	.	.	[8dd\J	.	[8fff\J	.
16AA/Jk	.	16f\Jk	.	.	.	.	.
=154	=154	=154	=154	=154	=154	=154	=154
8.GG/L	.	8.B-\L	.	16dd\LL]	.	16fff\LL]	.
.	.	.	.	16ee-\J	.	16ggg\J	.
.	.	.	.	[8bb-\J	.	[8ggg\J	.
16GG/Jk	.	16e-\Jk	.	.	.	.	.
8.AA/L	.	8.d\L	.	16bb-\LL]	.	16ggg\LL]	.
.	.	.	.	16aa\J	.	16ggg\J	.
.	.	.	.	8aa\J	.	8ggg\J	.
16AA/Jk	.	16c#\Jk	.	.	.	.	.
=155	=155	=155	=155	=155	=155	=155	=155
16D'/LK	.	16f'\LK	.	16aa\LK	.	16fff\LK	.
8.C/J	v	8.a\J	v	8ddd\	.	8eee\ 8fff\	.
.	.	.	.	[16ddd\Jk	.	[16fff\Jk	.
16BB-/LK	.	16d\LK	.	16ddd\LK]	.	16fff\LK]	.
8.AA/J	.	8.f\J	.	8ddd\	.	8fff\	.
.	.	.	.	16ddd\Jk	.	16fff\Jk	.
=156	=156	=156	=156	=156	=156	=156	=156
16GG/LK	.	16B-\LK	.	16eee-\LK	.	16ggg\LK	.
8.GG/J	.	8.e-\J	.	8bb-\	.	8ggg\	.
.	.	.	.	[16bb-\Jk	.	[16ggg\Jk	.
16AA/LK	.	16d\LK	.	16bb-\LK]	.	16ggg\LK]	.
8.AA/J	.	8.c#\J	.	8aa\	.	8ggg\	.
.	.	.	.	16aa\Jk	.	16ggg\Jk	.
=157	=157	=157	=157	=157	=157	=157	=157
16d\LL	ff	16dd\LL	ff	16aa\LK	ff	16fff\LK	ff
(16A\	.	(16a\	.	8dd\ 8ddd\	.	8fff\	.
16B-\)	.	16b-\)	.	.	.	.	.
(16G\JJ	.	(16g\JJ	.	[16dd\Jk [16ddd\	.	16fff\Jk	.
16A\LL)	.	16a\LL)	.	16dd\LL] 16ddd\]	.	16fff\LL	.
(16F\	.	(16f\	.	(16aa\	.	(16aaa\	.
16G\)	.	16g\)	.	16bb-\)	.	16bbb-\)	.
(16E\JJ	.	(16e\JJ	.	(16gg\JJ	.	(16ggg\JJ	.
=158	=158	=158	=158	=158	=158	=158	=158
16F\LL)	.	16f\LL)	.	16aa\LL)	.	16aaa\LL)	.
(16D\	.	(16d\	.	(16ff\	.	(16fff\	.
16E\)	.	16e\)	.	16gg\)	.	16ggg\)	.
(16C#\JJ	.	(16c#\JJ	.	(16ee\JJ	.	(16eee\JJ	.
16D/LL)	.	16d/LL)	.	16ff\LL)	.	16fff\LL)	.
(16DD/	.	(16D/	.	(16dd\	.	(16ddd\	.
16CC#/)	.	16C#/)	.	16ee\)	.	16eee\)	.
(16EE/JJ	.	(16E/JJ	.	(16cc#\JJ	.	(16ccc#\JJ	.
=159	=159	=159	=159	=159	=159	=159	=159
16DD/LL)	.	16D/LL)	.	16dd\LL)	.	16ddd\LL)	.
(16FF/	.	(16F/	.	(16a\	.	(16aa\	.
16EE/)	.	16E/)	.	16b-\)	.	16bb-\)	.
(16GG/JJ	.	(16G/JJ	.	(16g\JJ	.	(16gg\JJ	.
16FF/LL)	.	16F/LL)	.	16a/LL)	.	16aa\LL)	.
(16D/	.	(16F/	.	(16a/	.	(16ff\	.
16C#/)	.	16E/)	.	16b-/)	.	16gg\)	.
(16E/JJ	.	(16G/JJ	.	(16g/JJ	.	(16ee\JJ	.
=160	=160	=160	=160	=160	=160	=160	=160
16D\LL)	>	16F/LL)	>	16a/LL)	>	16ff\LL)	>
(16F\	.	(16A/	.	(16f/	.	(16dd\	.
16E\)	.	16G/)	.	16g/)	.	16ee\)	.
(16G\JJ	.	(16B-/JJ	.	(16e/JJ	.	(16cc#\JJ	.
16F\LL)	.	16A/LL)	.	16f/LL)	.	16dd\LL)	.
16D\	.	(16G/	.	(16e/	.	(16cc#\	.
16D\	.	16B-/)	.	16g/)	.	16ee\)	.
16D\JJ	.	(16G/JJ	.	(16e/JJ	.	(16cc#\JJ	.
=161	=161	=161	=161	=161	=161	=161	=161
16D\LL	.	16A/LL)	.	16f/LL)	.	16dd/LL)	.
16D\	.	(16G/	.	(16B-/	.	(16c#/	.
16D\	.	16E/	.	16G/	.	16e/	.
16D\JJ	.	16G/JJ	.	16B-/JJ	.	16c#/JJ	.
16D\LL	.	16F/LL	.	16A/LL	.	16d/LL	.
16D\	.	16G/	.	16B-/	.	16c#/	.
16D\	.	16E/	.	16G/	.	16e/	.
16D\JJ	.	16G/JJ	.	16B-/JJ	.	16c#/JJ	.
=162	=162	=162	=162	=162	=162	=162	=162
16D\LL	.	16F/LL	.	16A/LL	.	16d/LL	.
16D\	.	16G/	.	16B-/	.	16c#/	.
16D\	.	16E/	.	16G/	.	16e/	.
16D\JJ	.	16G/JJ	.	16B-/JJ	.	16c#/JJ	.
16D/LL	.	16F/LL	.	16A/LL	.	16d/LL	.
16DD/	.	16G/	.	16B-/	.	16c#/	.
16DD/	.	16E/	.	16G/	.	16e/	.
16DD/JJ	.	16G/JJ)	.	16B-/JJ)	.	16c#/JJ)	.
=163	=163	=163	=163	=163	=163	=163	=163
(16DD/LL	p	[2F/	p	[2A/	p	[2d/	p
16CC#/	>	.	>	.	>	.	>
16EE/	.	.	.	.	.	.	.
16CC#/JJ	.	.	.	.	.	.	.
16DD/LL	.	.	.	.	.	.	.
16CC#/	.	.	.	.	.	.	.
16EE/	.	.	.	.	.	.	.
16CC#/JJ	.	.	.	.	.	.	.
=164	=164	=164	=164	=164	=164	=164	=164
16DD/LL	.	2F/]	.	2A/]	.	2d/]	.
16CC#/	.	.	.	.	.	.	.
16EE/	.	.	.	.	.	.	.
16CC#/JJ	.	.	.	.	.	.	.
16DD/LL	.	.	.	.	.	.	.
16CC#/	.	.	.	.	.	.	.
16EE/	.	.	.	.	.	.	.
16CC#/JJ)	.	.	.	.	.	.	.
=165	=165	=165	=165	=165	=165	=165	=165
8.DD/L	pp	16d'/LL	pp	8.d/L	pp	8.f/L	pp
.	.	16A'/J	.	.	.	.	.
.	.	[8A/J	.	.	.	.	.
16C#'/Jk	.	.	.	16e'/Jk	.	16g'/Jk	.
8.D/L	.	16A/LL]	.	8.d/L	.	8.f/L	.
.	.	16A'/J	.	.	.	.	.
.	.	[8A/J	.	.	.	.	.
16AA'/Jk	.	.	.	16c#'/Jk	.	16e'/Jk	.
=166	=166	=166	=166	=166	=166	=166	=166
8.D/L	.	16A/LL]	.	8.d/L	.	8.f/L	.
.	.	16A/J	.	.	.	.	.
.	.	[8A/J	.	.	.	.	.
16C#'/Jk	.	.	.	16e'/Jk	.	16g'/Jk	.
8.D/L	.	16A/LL]	.	8.d/L	.	8.f/L	.
.	.	16A'/J	.	.	.	.	.
.	.	[8A/J	.	.	.	.	.
16AA'/Jk	.	.	.	16c#'/Jk	.	16e'/Jk	.
=167	=167	=167	=167	=167	=167	=167	=167
8D\	.	8A/L]	.	(4d/	.	(4f/	.
8r	.	(16Bn/L	.	.	.	.	.
.	.	16c#/JJ)	.	.	.	.	.
4r	.	8d\L	.	8f/L)	.	8dd\L)	.
.	.	(8d\J	.	(8f/J	.	[8dd\J	.
=168	=168	=168	=168	=168	=168	=168	=168
4r	.	8e\L)	<	8g/L)	<	8dd\L]	<
.	.	(8e\J	.	(8g/J	.	(8cc#\J	.
(Cnq/	.	.	.	.	.	.	.
8BBn/L	>	4f\)	>	8a-/L	>	4dd\)	>
16AA/L	.	.	.	8g/J)	.	.	.
16GG/JJ)	.	.	.	.	.	.	.
=169	=169	=169	=169	=169	=169	=169	=169
8.C/L	pp	16c/LL	pp	8.c/L	pp	8.e-/L	pp
.	.	16G'/J	.	.	.	.	.
.	.	[8G/J	.	.	.	.	.
16BBn'/Jk	.	.	.	16d'/Jk	.	16f'/Jk	.
8.C/L	.	16G/LL]	.	8.c/L	.	8.e-/L	.
.	.	16G'/J	.	.	.	.	.
.	.	[8G/J	.	.	.	.	.
16GG'/Jk	.	.	.	16Bn'/Jk	.	16d'/Jk	.
=170	=170	=170	=170	=170	=170	=170	=170
8.C/L	.	16G/LL]	.	8.c/L	.	8.e-/L	.
.	.	16G'/J	.	.	.	.	.
.	.	[8G/J	.	.	.	.	.
16BBn'/Jk	.	.	.	16d'/Jk	.	16f'/Jk	.
8.C/L	.	16G/LL]	.	8.c/L	.	8.e-/L	.
.	.	16G'/J	.	.	.	.	.
.	.	[8G/J	.	.	.	.	.
16GG'/Jk	.	.	.	16Bn'/Jk	.	16d'/Jk	.
=171	=171	=171	=171	=171	=171	=171	=171
4C/	.	8G/L]	.	(4c/	.	(4e-/	.
.	.	(16A/L	.	.	.	.	.
.	.	16Bn/JJ	.	.	.	.	.
4r	.	8c\L)	.	8e-/L)	.	8cc\L)	.
.	.	(8c\J	.	(8e-/J	.	[8cc\J	.
=172	=172	=172	=172	=172	=172	=172	=172
4r	.	8d\L)	<	8f/L)	<	(8cc\L]	<
.	.	(8d\J	.	(8f/J	.	8bn\J	.
(8AA/L	>	4e-\)	>	8g-/L	>	4cc\)	>
16GG/L	.	.	.	8f/J)	.	.	.
16FF/JJ)	.	.	.	.	.	.	.
=173	=173	=173	=173	=173	=173	=173	=173
8.BB-/L	pp	8.B-/L	pp	8.d/L	pp	16f/LL	pp
.	.	.	.	.	.	16f/J	.
.	.	.	.	.	.	[8f/J	.
16AA/Jk	.	16c/Jk	.	16e-/Jk	.	.	.
8.BB-/L	.	8.B-/L	.	8.d/L	.	16f/LL]	.
.	.	.	.	.	.	16f/J	.
.	.	.	.	.	.	[8f/J	.
16FF/Jk	.	16A/Jk	.	16c/Jk	.	.	.
=174	=174	=174	=174	=174	=174	=174	=174
8.BB-/L	.	8.B-/L	.	8.d/L	.	16f/LL]	.
.	.	.	.	.	.	16f/J	.
.	.	.	.	.	.	[8f/J	.
16AA/Jk	.	16c/Jk	.	16e-/Jk	.	.	.
8.BB-/L	.	8.B-/L	.	8.d/L	.	16f/LL]	.
.	.	.	.	.	.	16f/J	.
.	.	.	.	.	.	[8f/J	.
16FF/Jk	.	16A/Jk	.	16c#/Jk	.	.	.
=175	=175	=175	=175	=175	=175	=175	=175
8.BB-/L	<	8.B-/L	<	8.d/L	<	16f/LL]	<
.	.	.	.	.	.	16f/J	.
.	.	.	.	.	.	[8f/J	.
16FF/Jk	.	16A/Jk	.	16c#/Jk	.	.	.
8.BB-/L	.	8.B-/L	.	8.d/L	.	16f/LL]	.
.	.	.	.	.	.	16f/J	.
.	.	.	.	.	.	[8f/J	.
16FF/Jk	.	16A/Jk	.	16c#/Jk	.	.	.
=176	=176	=176	=176	=176	=176	=176	=176
8.BB-/L	>	8.B-/L	>	8.d/L	>	16f/LL]	>
.	.	.	.	.	.	16f/J	.
.	.	.	.	.	.	[8f/J	.
16FF/Jk	.	16A/Jk	.	16c#/Jk	.	.	.
8.BB-/L	.	8.B-/L	.	8.d/L	.	16f/LL]	.
.	.	.	.	.	.	16f/J	.
.	.	.	.	.	.	8f/J	.
16FF/Jk	.	16A/Jk	.	16c#/Jk	.	.	.
=177	=177	=177	=177	=177	=177	=177	=177
[2BB-/	p	(4B-/	p	(4d/	p	[2f/	p
.	>	8A/L	>	8cn/L	>	.	>
.	.	16B-/L	.	16d/L	.	.	.
.	.	16c/JJ)	.	16e-/JJ)	.	.	.
=178	=178	=178	=178	=178	=178	=178	=178
2BB-/_	.	(4d\	.	(4f/	.	(4f/]	.
.	.	8e-\L	.	8g-/L	.	8a/L	.
.	.	16d\L	.	16f/L	.	16b-/L	.
.	.	16c\JJ)	.	16e-/JJ)	.	16cc/JJ)	.
=179	=179	=179	=179	=179	=179	=179	=179
(4BB-/]	pp	(4B-/	pp	(4d/ 4b-/	pp	(4dd\	pp
8E-/L	.	8G-/L	.	8a\L	.	8cc\L	.
16D/L	.	16F/L	.	16b-\L	.	16dd\L	.
16C/JJ)	.	16E-/JJ)	.	16cc\JJ)	.	16ee-\JJ)	.
=180	=180	=180	=180	=180	=180	=180	=180
(4.BB-/	.	8D'/L	.	8dd'\L	.	8ff'\L	.
.	.	8d'/J	.	8dd'\J	.	8ff'\J	.
.	.	8c'\L	.	8ee'\L	.	8gg'\L	.
16AA/LL	.	8c'\J	.	8ee'\J	.	8gg'\J	.
16GG/JJ)	.	.	.	.	.	.	.
=181	=181	=181	=181	=181	=181	=181	=181
(8FF/L	.	8c\L	.	8ff'\L	.	(4aa\	p
16EE/L	.	8c\J	.	8ff'\J	.	.	.
16DD/JJ	.	.	.	.	.	.	.
8CC/L	.	8c\L	.	8gg'\L	.	8ccc'\L)	.
16DD/L	.	8c\J	.	8gg'\J	.	16ccc'\L	.
16EE/JJ	.	.	.	.	.	16bb-'\JJ	.
=182	=182	=182	=182	=182	=182	=182	=182
8FF/L	.	8c\L	.	8ff\L	.	(4aa\	.
16EE/L	.	8c\J	.	8ff\J	.	.	.
16FF/JJ	.	.	.	.	.	.	.
8GG/L	.	8c\L	.	8ee\L	.	8.ccc\L	.
16FF/L	.	8c\J	.	8ee\J	.	.	.
16GG/JJ	.	.	.	.	.	16bb-\Jk)	.
=183	=183	=183	=183	=183	=183	=183	=183
8AA/L	.	8c\L	.	8ff\L	.	(4aa\	.
16GG/L	.	8a\J	.	8ff\J	.	.	.
16AA/JJ	.	.	.	.	.	.	.
8BBn/L	.	8a\L	.	8ee\L	.	8gg\L	.
16D-/L	.	8a\J	.	8ee\J	.	16aa\L	.
16AA/JJ	.	.	.	.	.	16ee\JJ)	.
=184	=184	=184	=184	=184	=184	=184	=184
8D\L	.	8a\	.	8dd\	.	8ff'\L	.
16E\L	.	8f\L	.	8a/L	.	8dd'\J	.
16F\JJ	.	.	.	.	.	.	.
8G\L	.	8e\	.	8a/	.	8cc#'\L	.
16A\L	.	8e\J	.	8a/J	.	8a'\J	.
16G\JJ	.	.	.	.	.	.	.
=185	=185	=185	=185	=185	=185	=185	=185
8F\L	.	8f\L	.	8a\L	.	8dd'\L	.
16E\L	.	8a\J	.	8dd\J	.	8ff'\J	.
16D\JJ	.	.	.	.	.	.	.
8G\L	.	8b-\L	.	8dd\L	.	8ee'\L	.
8A\J)	.	8g\J	.	8cc#\J	.	8aa'\J	.
=186	=186	=186	=186	=186	=186	=186	=186
2B-\	<	2r	<	2r	<	2d/ 2dd/	<
=187	=187	=187	=187	=187	=187	=187	=187
(16B-\LL	f	(4d\	f	(4dd\	f	(4ff\	f
16d\)	.	.	.	.	.	.	.
16B-'\	.	.	.	.	.	.	.
16d'\JJ	.	.	.	.	.	.	.
(16B-\LL	.	8c\L	.	8ccn\L	.	8ee\L	.
16c\)	.	.	.	.	.	.	.
16B-'\	.	16d\L	.	16dd\L	.	16ff\L	.
16c'\JJ	.	16e\JJ)	.	16ee\JJ)	.	16gg\JJ)	.
=188	=188	=188	=188	=188	=188	=188	=188
(8A\L	.	8f\L	.	8ff\L	.	8aa\L	.
16G\L	.	8f\J	.	8ff\J	.	(16aa\L	.
16F\JJ	.	.	.	.	.	16bb-\JJ)	.
16E\LL	.	8g\L	.	8gg\L	.	(8ccc\L	.
16D\	.	.	.	.	.	.	.
16C\	.	8g\J	.	8gg\J	.	16ddd\L	.
16BB-\JJ)	.	.	.	.	.	16eee\JJ)	.
=189	=189	=189	=189	=189	=189	=189	=189
(8AA/L	.	(4a\	.	(4aa\	.	8fff'\L	.
16GG/L	.	.	.	.	.	8fff'\J	.
16FF/JJ	.	.	.	.	.	.	.
16EE/LL	.	8cc\L)	.	8ccc\L)	.	8ggg'\L	.
16DD/	.	.	.	.	.	.	.
16EE/	.	16cc\L	.	16ccc\L	.	8ggg'\J	.
16CC/JJ)	.	16b-\JJ	.	16bb-\JJ	.	.	.
=190	=190	=190	=190	=190	=190	=190	=190
(16FF/LL	ff	4a\	ff	4aa\	ff	(4aaa\	ff
16AA/)	.	.	.	.	.	.	.
(16AA/	.	.	.	.	.	.	.
16C/JJ)	.	.	.	.	.	.	.
(16EE/LL	.	8g\L	.	8cc\L	.	8cccc\L)	.
16GG/)	.	.	.	.	.	.	.
(16GG/	.	8g\J	.	8cc\J	.	16cccc'\L	.
16C/JJ)	.	.	.	.	.	16bbb-'\JJ	.
=191	=191	=191	=191	=191	=191	=191	=191
(16FF/LL	.	8.a\L	.	8.cc\L	.	4aaa\	.
16AA/)	.	.	.	.	.	.	.
(16AA/	.	.	.	.	.	.	.
16C/JJ)	.	(16a\Jk	.	(16aa\Jk	.	.	.
(16CC/LL	.	8.cc\L	v	8.ccc\L	v	4r	.
16EE/)	.	.	.	.	.	.	.
(16EE/	.	.	.	.	.	.	.
16GG/JJ)	.	16b-\Jk)	.	16bb-\Jk)	.	.	.
=192	=192	=192	=192	=192	=192	=192	=192
(16FF/LL	.	8.a\L	.	8.aa\L	.	8r	.
16AA/)	.	.	.	.	.	.	.
(16AA/	.	.	.	.	.	16r	.
16C/JJ)	.	16a\Jk	.	16ccc\Jk	.	(16aaa\LK	.
(16EE/LL	.	8.g\L	.	8.ccc\L	.	8.cccc\	v
16GG/)	.	.	.	.	.	.	.
(16GG/	.	.	.	.	.	.	.
16C/JJ)	.	16g\Jk	.	16ccc\Jk	.	16bbb-\Jk)	.
=193	=193	=193	=193	=193	=193	=193	=193
(16FF/LL	.	8a\	.	(16ccc\LL	.	(16bbb-\LL	.
16AA/)	.	.	.	16fff\)	.	16aaa\)	.
(16AA/	.	4f\	.	16fff'\	.	16aaa'\	.
16C/JJ)	.	.	.	16eee'\JJ	.	16ggg'\JJ	.
(16AA/LL	.	.	.	(16eee\LL	.	(16ggg\LL	.
16C/)	.	.	.	16ddd\)	.	16fff\)	.
(16C/	.	[8F/	.	16ddd'\	.	16fff'\	.
16F/JJ)	.	.	.	16ccc'\JJ	.	16eee'\JJ	.
=194	=194	=194	=194	=194	=194	=194	=194
(16BB-\LL	.	4F/]	.	16ccc\LL	.	(16eee\LL	.
16D\)	.	.	.	16bb-\	.	16ddd\)	.
(16D\	.	.	.	16bb-\	.	16ddd'\	.
16F\JJ)	.	.	.	16aa\JJ	.	16ccc#'\JJ	.
4r	.	8r	.	16aa\LK	.	(16ccc#\LL	.
.	.	.	.	8.bb-\J	.	16ddd\)	.
.	.	16b-'\LL	.	.	.	16ddd'\	.
.	.	16a'\JJ	.	.	.	16cccn'\JJ	.
=195	=195	=195	=195	=195	=195	=195	=195
(16GG/LL	.	(16a\LL	.	2r	.	(16ccc\LL	.
16BB-/)	.	16g\)	.	.	.	16bb-\)	.
(16BB-/	.	16g'\	.	.	.	16bb-'\	.
16D/JJ)	.	16f'\JJ	.	.	.	16aa'\JJ	.
(16GG/LL	.	(16f\LL	.	.	.	(16aa\LL	.
16BBn/)	.	16e\)	.	.	.	16gg\)	.
(16BB/	.	16e'\	.	.	.	16gg'\	.
16D/JJ)	.	16d'\JJ	.	.	.	16ff'\JJ	.
=196	=196	=196	=196	=196	=196	=196	=196
(16CC/LL	.	(16d\LL	.	8r	.	(16ff\LL	.
16GG/)	.	16c\)	.	.	.	16ee\JJ)	.
(16GG/	.	16e'\	p	16ee'\LL	p	8r	.
16C/JJ)	.	16f'\JJ	.	16ff'\JJ	.	.	.
4r	.	(16f#\LL	.	(16ff#\LL	.	4r	.
.	.	16g\)	.	16gg\)	.	.	.
.	.	16g'\	.	16gg'\	.	.	.
.	.	16fn'\JJ	.	16ffn'\JJ	.	.	.
=197	=197	=197	=197	=197	=197	=197	=197
8r	.	(16f\LL	.	(16ff\LL	.	2r	.
.	.	16e\)	.	16ee\)	.	.	.
(16C\LL	p	16e'\	.	16ee'\	.	.	.
16E\JJ	.	16d'\JJ	.	16dd'\JJ	.	.	.
16C\LL	.	(16d\LL	.	(16dd\LL	.	.	.
16E\	.	16c\)	.	16cc\)	.	.	.
16D\	.	16c'\	.	16cc'\	.	.	.
16F\JJ)	.	16Bn'\JJ	.	16bn'\JJ	.	.	.
=198	=198	=198	=198	=198	=198	=198	=198
(16D\LL	<	(16c\LL	<	(16cc\LL	<	2r	.
16F\	.	16B-\)	.	16b-\)	.	.	.
16D\	.	(16B-\	.	(16b-\	.	.	.
16F\JJ	.	16f\JJ	.	16ff\JJ	.	.	.
16E\LL	>	16g\LL	>	16gg\LL	>	.	.
16G\	.	16B-\	.	16b-\	.	.	.
16F\	.	16A\	.	16a\	.	.	.
16A\JJ)	.	16f\JJ)	.	16ff\JJ)	.	.	.
=199	=199	=199	=199	=199	=199	=199	=199
2r	Xp	2r	Xp	(16d/LL	<	(16ccc\LL	<
.	.	.	.	16f/)	.	16bb-\)	.
.	.	.	.	(16d/	.	(16bb-\	.
.	.	.	.	16f/JJ	.	16fff\JJ	.
.	.	.	.	16e/LL	>	16ggg\LL	>
.	.	.	.	16g/	.	16bb-\	.
.	.	.	.	16f/	.	16aa\	.
.	.	.	.	16a/JJ)	.	16fff\JJ)	.
=200	=200	=200	=200	=200	=200	=200	=200
8r	.	(16G/LL	p	(16g\LL	p	4r	Xp
.	.	16d/JJ)	.	16dd\JJ)	.	.	.
8BB-/	.	16r	.	16r	.	.	.
.	.	16d\	.	16dd\	.	.	.
8r	p	(16E/LL	.	(16e/LL	.	(16fff#\LL	p
.	.	16c/JJ)	.	16cc/JJ)	.	16ggg\)	.
8C/	.	16r	.	16r	.	16fffn\	.
.	.	16c\	.	16cc\	.	16eee\JJ	.
=201	=201	=201	=201	=201	=201	=201	=201
2r	.	2r	.	8r	.	(16ddd-\LL	<
.	.	.	.	.	.	16ccc\)	.
.	.	.	.	(16d-/LL	.	(16bb-\	.
.	.	.	.	16f/JJ	.	16fff\JJ	.
.	.	.	.	16c/LL	.	16ggg\LL	>
.	.	.	.	16e/	.	16bb-\	.
.	.	.	.	16f/	.	16aa-\	.
.	.	.	.	16a-/JJ)	.	16fff\JJ)	.
=202	=202	=202	=202	=202	=202	=202	=202
8r	<	16d-\LL	<	(16dd-\LL	<	2r	Xp
.	.	16c\	.	16cc\)	.	.	.
16DD-/LL	.	16B-\	.	(16b-\	.	.	.
16FF/JJ	.	16f\JJ	.	16ff\JJ	.	.	.
16CC/LL	>	16g\LL	>	16gg\LL	>	.	.
16EE/	.	16B-\	.	16b-\	.	.	.
16FF/	.	16A-\	.	16a-\	.	.	.
16AA-/JJ	.	16f\JJ	.	16ff\JJ)	.	.	.
=203	=203	=203	=203	=203	=203	=203	=203
8r	.	(16G/LL	p	(16g\LL	p	8r	.
.	.	16d-/JJ)	<	16dd-\JJ)	<	.	.
8BB-/	p	16r	.	16r	.	(16gg\LL	p
.	<	16d-\	.	16dd-\	.	16ddd-\JJ)	<
8r	.	(16E/LL	.	(16e/LL	.	8r	.
.	.	16c/JJ)	.	16cc/JJ)	.	.	.
8C/	.	16r	.	16r	.	(16ff\LL	.
.	.	16c\	.	16cc\	.	16ccc\JJ)	.
=204	=204	=204	=204	=204	=204	=204	=204
8r	.	8r	.	8r	.	(16ff\LL	.
.	.	.	.	.	.	16aa-\JJ)	.
(16F\LL	.	8A-/	.	8f/	.	16r	.
16A-\JJ)	.	.	.	.	.	16ff\	.
8r	.	8r	.	8r	.	(16a-\LL	.
.	.	.	.	.	.	16ff\JJ)	.
(16D-\LL	.	8f\	.	8a-/	.	16r	.
16F\JJ)	.	.	.	.	.	16ff\	.
=205	=205	=205	=205	=205	=205	=205	=205
8r	.	8r	.	8r	.	(16g\LL	.
.	.	.	.	.	.	16dd-\JJ)	.
(16BB-/LL	.	8f\	.	8g/	.	16r	.
16D-/JJ)	.	.	.	.	.	16dd-\	.
8r	.	8r	.	8r	.	(16e/LL	.
.	.	.	.	.	.	16cc/JJ)	.
(16CC/LL	.	8B-/	.	8e/	.	16r	.
16C/JJ)	.	.	.	.	.	16cc\	.
=206	=206	=206	=206	=206	=206	=206	=206
(4FF/	ff	8A-'/L	ff	8f/	ff	16cc/LL	ff
.	.	.	.	.	.	(16c/	.
.	.	8A-'/J	.	8c'/L	.	16A-/)	.
.	.	.	.	.	.	(16f/JJ	.
8C/L	.	8B-'/L	.	8c'/	.	16g/LL)	.
.	.	.	.	.	.	(16e/	.
16Dn/L	.	8B-'/J	.	8c'/J	.	16c/)	.
16E/JJ)	.	.	.	.	.	(16g/JJ	.
=207	=207	=207	=207	=207	=207	=207	=207
8F'\L	.	8A-'/L	.	8c'/L	.	16a-/LL)	.
.	.	.	.	.	.	(16f/	.
8F'\J	.	8A-'/J	.	8c'/J	.	16c/)	.
.	.	.	.	.	.	(16a-/JJ	.
8G'\L	.	8B-'/L	.	8e'/L	.	16b-/LL)	.
.	.	.	.	.	.	(16g/	.
8G'\J	.	8B-'/J	.	8e'/J	.	16e/)	.
.	.	.	.	.	.	(16b-/JJ	.
=208	=208	=208	=208	=208	=208	=208	=208
8A-\L	.	8c\L	.	8f/L	.	16cc/LL)	.
.	.	.	.	.	.	(16a-/	.
8A-\J	.	8c\J	.	8f/J	.	16f/)	.
.	.	.	.	.	.	(16cc/JJ	.
8G\L	.	8c\L	.	8b-\L	.	16ee\LL)	.
.	.	.	.	.	.	(16cc\	.
8G\J	.	8c\J	.	8b-\J	.	16g\)	.
.	.	.	.	.	.	(16ee\JJ	.
=209	=209	=209	=209	=209	=209	=209	=209
8F\L	.	8c\L	.	8a-/L	.	16ff\LL)	.
.	.	.	.	.	.	(16cc\	.
8F\J	.	8c\J	.	8a-/J	.	16a-\)	.
.	.	.	.	.	.	(16ff\JJ	.
8C/L	.	8e\L	.	8cc\L	.	16gg\LL)	.
.	.	.	.	.	.	(16ee\	.
8C/J	.	8e\J	.	8cc\J	.	16cc\)	.
.	.	.	.	.	.	(16gg\JJ	.
=210	=210	=210	=210	=210	=210	=210	=210
(4AA-/	v	8f\L	.	8cc\L	.	16aa-\LL)	.
.	.	.	.	.	.	(16ff\	.
.	.	8f\J	.	8cc\J	.	16cc\)	.
.	.	.	.	.	.	(16aa-\JJ	.
8CC/L	.	8g\L	.	8b-\L	.	16ccc\LL)	.
.	.	.	.	.	.	(16gg\	.
16DD/L	.	8g\J	.	8b-\J	.	16ee\)	.
16EE/JJ)	.	.	.	.	.	16ccc'\JJ	.
=211	=211	=211	=211	=211	=211	=211	=211
8FF/L	.	8f\L	.	8a-'/L	.	16ccc'\LL	.
.	.	.	.	.	.	(16aa-\	.
8FF/J	.	8f\J	.	8a-'/J	.	16ff\)	.
.	.	.	.	.	.	(16ccc\JJ	.
4r	.	(8E-/L	.	(8g/L	.	16eee-\LL)	.
.	.	.	.	.	.	(16bb-\	.
.	.	16F/L	.	16a-/L	.	16gg\)	.
.	.	16G/JJ)	.	16b-/JJ)	.	16eee-'\JJ	.
=212	=212	=212	=212	=212	=212	=212	=212
4r	.	8A-'/L	.	8cc'\L	.	16eee-'\LL	.
.	.	.	.	.	.	(16ccc\	.
.	.	8A-'/J	.	8cc'\J	.	16aa-\)	.
.	.	.	.	.	.	16eee-'\JJ	.
(8EE-/L	.	(8G/L	.	8e-/L 8dd-/	.	16eee-'\LL	.
.	.	.	.	.	.	(16ddd-\	.
16FF/L	.	16A-/L	.	8e-/J 8dd-/	.	16bb-\)	.
16GG/JJ)	.	16B-/JJ)	.	.	.	16eee-'\JJ	.
=213	=213	=213	=213	=213	=213	=213	=213
8AA-/L	.	8c\L	.	8e-/L 8cc/	.	16eee-'\LL	.
.	.	.	.	.	.	(16ccc\	.
8AA-/J	.	8c\J	.	8e-/J 8cc/	.	16aa-\)	.
.	.	.	.	.	.	16eee-'\JJ	.
(8DD/L	.	(8D/L	.	(8f#/L	.	16dddn'\LL	.
.	.	.	.	.	.	(16ccc\	.
16EE/L	.	16E/L	.	16g/L	.	16aan\)	.
16FF#/JJ)	.	16F#/JJ)	.	16an/JJ)	.	16ddd'\JJ	.
=214	=214	=214	=214	=214	=214	=214	=214
(8GG/L	v	[4G/	v	2d/ 2bn/	v	16ddd'\LL	v
.	.	.	.	.	.	(16bbn\	.
16BBn/L	.	.	.	.	.	16gg\)	.
16D/JJ	.	.	.	.	.	16fff'\JJ	.
8G\)	.	(8G/L]	.	.	.	(16fff\LL	.
.	.	.	.	.	.	16ddd\)	.
8r	.	16Bn/L	.	.	.	(16ddd\	.
.	.	16d/JJ)	.	.	.	16fff\JJ)	.
=215	=215	=215	=215	=215	=215	=215	=215
2r	.	4g\	.	(8g/L	v	(16fff\LL	.
.	.	.	.	.	.	16ddd\)	.
.	.	.	.	8bn/J	.	(16ddd\	.
.	.	.	.	.	.	16fff\JJ)	.
.	.	4r	.	8dd\L	.	(16fff\LL	.
.	.	.	.	.	.	16ddd\)	.
.	.	.	.	8ff\J)	.	(16gg\	.
.	.	.	.	.	.	16ggg\JJ)	.
=216	=216	=216	=216	=216	=216	=216	=216
(8CC/L	v	[4C/	v	[2cc\ [2ee\	v	(16ggg\LL	.
.	.	.	.	.	.	16eee\)	.
16EE/L	.	.	.	.	.	(16eee\	.
16GG/JJ)	.	.	.	.	.	16ccc\JJ)	.
4C/	.	(8C/L]	.	.	.	16ccc\LL	.
.	.	.	.	.	.	16gg\	.
.	.	16E/L	.	.	.	(16gg\	.
.	.	16G/JJ)	.	.	.	16bb-\JJ)	.
=217	=217	=217	=217	=217	=217	=217	=217
*clefC4	*clefG2	*	*	*	*	*	*
(8c\L	>	4c\	.	4cc\] 4ee\]	.	(16bb-\LL	>
.	.	.	.	.	.	16gg\)	.
8e\J	.	.	.	.	.	(16gg\	.
.	.	.	.	.	.	16bb-\JJ)	.
8g\L	.	4r	.	4r	.	(16bb-\LL	.
.	.	.	.	.	.	16gg\)	.
8b-\J)	.	.	.	.	.	(16cc\	.
.	.	.	.	.	.	16ccc\JJ)	.
=218	=218	=218	=218	=218	=218	=218	=218
(4a\	Xmf	8r	.	8r	.	(16ccc\LL	p
.	.	.	.	.	.	16cc\)	.
.	.	8F/	p	8A/	p	(16cc\	.
.	.	.	.	.	.	16ccc\JJ)	.
4e\	.	8r	.	8r	.	(16ccc\LL	.
.	.	.	.	.	.	16cc\)	.
.	.	8G/	.	8B-/	.	(16cc\	.
.	.	.	.	.	.	16ccc\JJ)	.
=219	=219	=219	=219	=219	=219	=219	=219
4f\	.	8r	.	8r	.	(16ccc\LL	.
.	.	.	.	.	.	16cc\)	.
.	.	8A/	.	8c/	.	(16cc\	.
.	.	.	.	.	.	16ccc\JJ)	.
4f#\	.	8r	.	8r	.	(16ccc\LL	.
.	.	.	.	.	.	16cc\)	.
.	.	8A/	.	8e-/	.	(16cc\	.
.	.	.	.	.	.	16ccc\JJ)	.
=220	=220	=220	=220	=220	=220	=220	=220
4g\	.	8r	.	8r	.	(16ccc\LL	.
.	.	.	.	.	.	16cc\)	.
.	.	8B-/	.	8e/	.	(16cc\	.
.	.	.	.	.	.	16ccc\JJ)	.
4a\	.	8r	.	8r	.	(16ccc\LL	.
.	.	.	.	.	.	16cc\)	.
.	.	8A/	.	8f#/	.	(16cc\	.
.	.	.	.	.	.	16ccc\JJ)	.
=221	=221	=221	=221	=221	=221	=221	=221
2b-\)	.	8r	.	8r	.	(16ccc\LL	.
.	.	.	.	.	.	16cc\)	.
.	.	8G/	.	8g/	.	(16cc\	.
.	.	.	.	.	.	16ccc\JJ)	.
.	.	8r	.	8r	.	(16ccc\LL	.
.	.	.	.	.	.	16cc\)	.
.	.	8Fn/	.	8g/	.	(16cc\	.
.	.	.	.	.	.	16ccc\JJ)	.
=222	=222	=222	=222	=222	=222	=222	=222
(4b-\	<	8r	<	8r	<	(16ccc\LL	<
.	.	.	.	.	.	16cc\)	.
.	.	8E/	.	8g/	.	(16cc\	.
.	.	.	.	.	.	16ccc\JJ)	.
4cc\	.	8r	.	8r	.	(16ccc\LL	.
.	.	.	.	.	.	16cc\)	.
.	.	8D/	.	8a/	.	(16cc\	.
.	.	.	.	.	.	16ccc\JJ)	.
=223	=223	=223	=223	=223	=223	=223	=223
4dd\)	.	8r	.	8r	.	(16ccc\LL	.
.	.	.	.	.	.	16cc\)	.
.	.	8C/	.	8b-\	.	(16cc\	.
.	.	.	.	.	.	16ccc\JJ)	.
4e\	.	8r	.	8r	.	(16ccc\LL	.
.	.	.	.	.	.	16cc\)	.
.	.	8B-/	.	8G/	.	(16cc\	.
.	.	.	.	.	.	16ccc\JJ)	.
=224	=224	=224	=224	=224	=224	=224	=224
4f\	.	8r	.	8r	.	(16ccc\LL	.
.	.	.	.	.	.	16cc\)	.
.	.	8A/	.	8c/	.	(16cc\	.
.	.	.	.	.	.	16ccc\JJ)	.
4g\	Xmf>	8r	Xmf>	8r	Xmf>	(16ccc\LL	Xmf>
.	.	.	.	.	.	16cc\)	.
.	.	8G/	.	8e/	.	(16cc\	.
.	.	.	.	.	.	16ccc\JJ)	.
=225	=225	=225	=225	=225	=225	=225	=225
4a\	.	8r	.	8r	.	(16ccc\LL	.
.	.	.	.	.	.	16cc\)	.
.	.	8F/	.	8f/	.	(16cc\	.
.	.	.	.	.	.	16ccc\JJ)	.
4g\	.	8r	.	8r	.	(16bb-\LL	.
.	.	.	.	.	.	16cc\)	.
.	.	8C/	.	8e/	.	(16cc\	.
.	.	.	.	.	.	16bb-\JJ)	.
=226	=226	=226	=226	=226	=226	=226	=226
2r	Xp	8C/ 8c/	Xp	4a-/	Xp	(4aa-\	Xp
.	.	4C/ 4c/	.	.	.	.	.
.	.	.	.	4e/	.	4ee\	.
.	.	[8C/ [8c/	.	.	.	.	.
=227	=227	=227	=227	=227	=227	=227	=227
*clefF4	*clefF4	*	*	*	*	*	*
4AA-/	.	8C/] 8c/]	.	4f/	.	4ff\	.
.	.	4C/ 4c/	.	.	.	.	.
4EE-/	.	.	.	4g/	.	4gg\	.
.	.	[8C/ [8c/	.	.	.	.	.
=228	=228	=228	=228	=228	=228	=228	=228
4FF/	.	8C/] 8c/]	.	4a-/	.	4aa-\	.
.	.	4C/ 4c/	.	.	.	.	.
4GG-/	.	.	.	4an/	.	4aan\	.
.	.	[8C/ [8c/	.	.	.	.	.
=229	=229	=229	=229	=229	=229	=229	=229
4GG/	.	8C/] 8c/]	.	2b-\	.	2bb-\)	.
.	.	4C/ 4c/	.	.	.	.	.
4AA-/	.	.	.	.	.	.	.
.	.	[8C/ [8c/	.	.	.	.	.
=230	=230	=230	=230	=230	=230	=230	=230
2BB-/	.	8C/] 8c/]	<	4b-\	<	(4bb-\	<
.	.	4C/ 4c/	.	.	.	.	.
.	.	.	.	4cc\	.	4ccc\	.
.	.	[8C/ [8c/	.	.	.	.	.
=231	=231	=231	=231	=231	=231	=231	=231
4BB-/	<	8C/] 8c/]	.	4dd-\	.	4ddd-\	.
.	.	4C/ 4c/	.	.	.	.	.
4C/	.	.	.	4e/	.	4ee\	.
.	.	[8C/ [8c/	.	.	.	.	.
=232	=232	=232	=232	=232	=232	=232	=232
4D-\	.	8C/] 8c/]	.	4f/	.	4ff\	.
.	.	4C/ 4c/	.	.	.	.	.
4EE/	.	.	.	4g/	.	4gg\	.
.	.	[8C/ [8c/	.	.	.	.	.
=233	=233	=233	=233	=233	=233	=233	=233
4FF/	>	8C/] 8c/]	>	[2a-/	>	[2aa-\)	>
.	.	4C/	.	.	.	.	.
4EE-/	.	.	.	.	.	.	.
.	.	8G-/	.	.	.	.	.
=234	=234	=234	=234	=234	=234	=234	=234
[2DD-/	pp	[2F/	pp	2a-/]	pp	(4aa-\]	.
.	.	.	.	.	.	8ee\L	.
.	.	.	.	.	.	16ff\L	pp
.	.	.	.	.	.	16gg\JJ)	.
=235	=235	=235	=235	=235	=235	=235	=235
2DD-/_	.	4F/]	.	[2Bn/	.	8aa-'\L	.
.	.	.	.	.	.	8aa-'\J	.
.	.	(8E/L	.	.	.	8gg'\L	.
.	.	16F/L	.	.	.	8gg'\J	.
.	.	16G/JJ)	.	.	.	.	.
=236	=236	=236	=236	=236	=236	=236	=236
2DD-/]	.	8A-'/L	.	2B/]	.	8ff'\L	.
.	.	8A-'/J	.	.	.	8ff'\J	.
.	.	8G'/L	.	.	.	(8ee\L	.
.	.	8G'/J	.	.	.	16ff\L	.
.	.	.	.	.	.	16gg\JJ)	.
=237	=237	=237	=237	=237	=237	=237	=237
16CC'/LL	ff	2F/	ff	2c/ 2a/	ff	2aa\	ff
16DD'/	.	.	.	.	.	.	.
16EE'/	.	.	.	.	.	.	.
16FF'/JJ	.	.	.	.	.	.	.
16GG'/LL	.	.	.	.	.	.	.
16AA'/	.	.	.	.	.	.	.
16BB-'/	.	.	.	.	.	.	.
16C'/JJ	.	.	.	.	.	.	.
=238	=238	=238	=238	=238	=238	=238	=238
2BB-/	.	2F/	.	16d'/LL	.	2B-/ 2d/	.
.	.	.	.	16e'/	.	.	.
.	.	.	.	16f'/	.	.	.
.	.	.	.	16g'/JJ	.	.	.
.	.	.	.	16a'\LL	.	.	.
.	.	.	.	16b-'\	.	.	.
.	.	.	.	16cc'\	.	.	.
.	.	.	.	16dd'\JJ	.	.	.
=239	=239	=239	=239	=239	=239	=239	=239
2GG/	.	16C'/LL	.	16bb-\LL	.	16e'/LL	.
.	.	16D'/	.	16aa\	.	16f'/	.
.	.	16E'/	.	16gg\	.	16g'/	.
.	.	16F'/JJ	.	16ff\JJ	.	16a'/JJ	.
.	.	16G'/LL	.	16ee\LL	.	16b-'\LL	.
.	.	16A'/	.	16dd\	.	16cc'\	.
.	.	16B-'/	.	16cc\	.	16dd'\	.
.	.	16c'/JJ	.	16b-\JJ	.	16ee\JJ	.
=240	=240	=240	=240	=240	=240	=240	=240
16F\LL	.	16a\LL	.	16a\LL	.	16ff\LL	.
16E\	.	16g\	.	16b-\	.	16gg\	.
16D\	.	16f\	.	16cc\	.	16aa\	.
16C\JJ	.	16e\JJ	.	16dd\JJ	.	16bb-\JJ	.
16BB-/LL	.	16d/LL	.	16ee\LL	.	16ccc\LL	.
16AA/	.	16c/	.	16ff\	.	16ddd\	.
16GG/	.	16B-/	.	16gg\	.	16eee\	.
16FF/JJ	.	16A/JJ	.	16aa\JJ	.	16fff\JJ	.
=241	=241	=241	=241	=241	=241	=241	=241
8BB-/	.	8f\	.	8bb-\	.	8ddd\	.
8r	.	8r	.	8r	.	8r	.
8BB-/	.	8B-/	.	8f\ 8dd\ 8bb-\	.	8b-\ 8ff\ 8ddd\	.
8r	.	8r	.	8r	.	8r	.
=242	=242	=242	=242	=242	=242	=242	=242
8C/	.	8c\	.	8f\ 8cc\ 8aa\	.	8a\ 8ff\ 8ccc\	.
8r	.	8r	.	8r	.	8r	.
8CC/	.	8C/ 8c/	.	8g/ 8b-/	.	8g\ 8b-\ 8ee\	.
8r	.	8r	.	8r	.	8r	.
=243	=243	=243	=243	=243	=243	=243	=243
4r	.	2r	.	2r	.	2r	.
(8EE/L	pp	.	.	.	.	.	.
16FF/L	.	.	.	.	.	.	.
16GG/JJ)	.	.	.	.	.	.	.
=244	=244	=244	=244	=244	=244	=244	=244
8AA-/L	.	4r	.	4r	.	4r	.
8AA-/J	.	.	.	.	.	.	.
8AA-/L	.	(8F/L	pp	8bn\L	pp	(8dd\L	pp
8AA-/J	<	16E/L	<	8b\J	<	16ee\L	<
.	.	16D/JJ)	.	.	.	16ff\JJ)	.
=245	=245	=245	=245	=245	=245	=245	=245
8.AA\L	.	8.C/L	.	16cc\LL	.	16ff'\LL	.
.	.	.	.	16aa\J	.	16ccc\J	.
.	.	.	.	[8aa\J	.	[8ccc\J	.
16A'\Jk	.	16c'/Jk	.	.	.	.	.
8.A\L	.	8.c\L	.	16aa\LL]	.	16ccc\LL]	.
.	.	.	.	16aa\J	.	16ccc\J	.
.	.	.	.	[8aa\J	.	[8ccc\J	.
16c'\Jk	.	16f'\Jk	.	.	.	.	.
=246	=246	=246	=246	=246	=246	=246	=246
8.c\L	.	8.f\L	.	16aa\LL]	.	16ccc\LL]	.
.	.	.	.	16aa\J	.	16ccc\J	.
.	.	.	.	[8aa\J	.	[8ccc\J	.
16f'\Jk	.	16a'\Jk	.	.	.	.	.
(16f\LL	.	(16a\LL	.	16aa\LL]	.	16ccc\LL]	.
16c\)	.	16f\)	.	16aa\	.	16ccc\	.
16A'\	.	16c'\	.	16aa\	.	16ccc\	.
16F'\JJ	.	16A'\JJ	.	16aa\JJ	.	16ccc\JJ	.
=247	=247	=247	=247	=247	=247	=247	=247
8.G\L	.	8.B-\L	.	16ee'\LL	.	16ccc'\LL	.
.	.	.	.	16bb-'\J	.	16ccc'\J	.
.	.	.	.	[8bb-\J	.	[8ccc\J	.
16B-'\Jk	.	16e\Jk	.	.	.	.	.
8.B-\L	.	8.e\L	.	16bb-\LL]	.	16ccc\LL]	.
.	.	.	.	16bb-\J	.	16ccc\J	.
.	.	.	.	[8bb-\J	.	[8ccc\J	.
16e'\Jk	.	16g\Jk	.	.	.	.	.
=248	=248	=248	=248	=248	=248	=248	=248
8.e\L	.	8.g\L	.	16bb-\LL]	.	16ccc\LL]	.
.	.	.	.	16bb-\J	.	16ccc\J	.
.	.	.	.	[8bb-\J	.	[8ccc\J	.
16g\Jk	.	16b-\Jk	.	.	.	.	.
(16g\LL	.	(16b-\LL	.	16bb-\LL]	.	16ccc\LL]	.
16e\)	.	16g\)	.	16bb-\	.	16ccc\	.
16B-'\	.	16e'\	.	16bb-\	.	16ccc\	.
16G'\JJ	.	16B-'\JJ	.	16bb-\JJ	.	16ccc\JJ	.
=249	=249	=249	=249	=249	=249	=249	=249
16F\LL	f	16c'\LL	f	8.aa\L	f	8.ccc\L	f
16f\J	.	16a'\J	.	.	.	.	.
[8f\J	.	[8a\J	.	.	.	.	.
.	.	.	.	16ccc'\Jk	.	16fff'\Jk	.
16f\LL]	.	16a\LL]	.	8.ccc\L	.	8.fff\L	.
16f\J	.	16a\J	.	.	.	.	.
[8f\J	.	[8a\J	.	.	.	.	.
.	.	.	.	16fff\Jk	.	16aaa\Jk	.
=250	=250	=250	=250	=250	=250	=250	=250
16f\LL]	.	16a\LL]	.	8.fff\L	.	8.aaa\L	.
16f\J	.	16a'\J	.	.	.	.	.
[8f\J	.	[8a\J	.	.	.	.	.
.	.	.	.	16aaa\Jk	.	16cccc\Jk	.
16f\LL]	.	16a\LL]	.	(16aaa\LL	.	(16cccc\LL	.
16f'\	.	16a'\	.	16fff\)	.	16aaa\)	.
16f\	.	16a\	.	16ccc'\	.	16fff'\	.
16f\JJ	.	16a\JJ	.	16aa'\JJ	.	16ccc'\JJ	.
=251	=251	=251	=251	=251	=251	=251	=251
16g\LL	.	16b-\LL	.	8.gg\L	.	8.bb-\L	.
16c\J	.	16g\J	.	.	.	.	.
[8c\J	.	8.g\J	.	.	.	.	.
.	.	.	.	16bb-\Jk	.	16eee'\Jk	.
16c\LL]	.	.	.	8.bb-\L	.	8.eee\L	.
16c\J	.	16g\LK	.	.	.	.	.
[8c\J	.	[8g\J	.	.	.	.	.
.	.	.	.	16eee\Jk	.	16ggg'\Jk	.
=252	=252	=252	=252	=252	=252	=252	=252
16c\LL]	.	16g\LL]	.	8.eee\L	.	8.ggg\L	.
16c\J	.	16g\J	.	.	.	.	.
[8c\J	.	[8g\J	.	.	.	.	.
.	.	.	.	16ggg\Jk	.	16bbb-\Jk	.
16c\LL]	.	16g\LL]	.	16ggg\LL	.	(16bbb-\LL	.
16c\	.	16g\	.	16eee\	.	16ggg\)	.
16c\	.	16g\	.	16bb-\	.	16eee'\	.
16c\JJ	.	16g\JJ	.	16gg\JJ	.	16bb-'\JJ	.
=253	=253	=253	=253	=253	=253	=253	=253
16f\LL	p	16a'\LL	p	8.ff\L	p	8.aa\L	p
16f\J	.	16a'\J	.	.	.	.	.
[8c\J	.	[8g\J	.	.	.	.	.
.	.	.	.	16gg'\Jk	.	16eee'\Jk	.
16c\LL]	.	16g\LL]	.	8.aa\L	.	8.fff\L	.
16f\J	.	16a\J	.	.	.	.	.
[8d\J	.	[8cc\J	.	.	.	.	.
.	.	.	.	16aa'\Jk	.	16fff#'\Jk	.
=254	=254	=254	=254	=254	=254	=254	=254
16d\LL]	.	16cc\LL]	.	8.bb-\L	.	8.ggg\L	.
16g\J	.	16b-\J	.	.	.	.	.
[8d\J	.	[8cc\J	.	.	.	.	.
.	.	.	.	16aa'\Jk	.	16fff#\Jk	.
16d\LL]	.	16cc\LL]	.	8.bb-\L	.	8.ggg\L	.
16g\J	.	16b-\J	.	.	.	.	.
8c\J	.	8b-\J	.	.	.	.	.
.	.	.	.	16gg\Jk	.	16eee\Jk	.
=255	=255	=255	=255	=255	=255	=255	=255
16f\LL	<	16a\LL	<	8.ff\L	<	8.aaa\L	<
16F\J	.	16A\J	.	.	.	.	.
[8C\J	.	[8B-\J	.	.	.	.	.
.	.	.	.	16ee\Jk	.	16ggg\Jk	.
16C\LL]	.	16B-/LL]	.	8.ff\L	.	8.aaa\L	.
16F\J	.	16A/J	.	.	.	.	.
[8D\J	.	[8c/J	.	.	.	.	.
.	.	.	.	16gg-\Jk	.	16aaa\Jk	.
=256	=256	=256	=256	=256	=256	=256	=256
16D\LL]	.	16c/LL]	.	8.gg\L	.	8.bbb-\L	.
16G\J	.	16B-/J	.	.	.	.	.
[8D\J	.	[8c/J	.	.	.	.	.
.	.	.	.	16ff#\Jk	.	16aaa\Jk	.
16D\LL]	.	16c/LL]	.	8.gg\L	.	8.bbb-\L	.
16G\J	.	16B-/J	.	.	.	.	.
[8C\J	.	[8B-/J	.	.	.	.	.
.	.	.	.	16ee\Jk	.	16ggg\Jk	.
=257	=257	=257	=257	=257	=257	=257	=257
16C\LL]	.	16B-/LL]	.	8.aa\L	.	8.aaa\L	.
16F\J	.	16A/J	.	.	.	.	.
[8E\J	.	[8G/J	.	.	.	.	.
.	.	.	.	16ccc\Jk	.	16cccc\Jk	.
16E\LL]	.	16G/LL]	.	8.ffn\L	.	8.fff\L	.
16D\J	.	16F/J	.	.	.	.	.
[8C\J	.	[8E/J	.	.	.	.	.
.	.	.	.	16aa\Jk	.	16aaa\Jk	.
=258	=258	=258	=258	=258	=258	=258	=258
16C/LL]	.	16E/LL]	.	8.dd\L	.	8.ddd\L	.
16BB-/J	.	16D/J	.	.	.	.	.
[8GG/J	.	[8B-/J	.	.	.	.	.
.	.	.	.	16gg\Jk	.	16ggg\Jk	.
16GG/LL]	.	16B-/LL]	.	8.ff\L	.	8.fff\L	.
16C/J	.	16A/J	.	.	.	.	.
[8CC/J	.	[8G/J	.	.	.	.	.
.	.	.	.	16ee\Jk	.	16eee\Jk	.
=259	=259	=259	=259	=259	=259	=259	=259
16CC/LK]	.	16G/LK]	.	16aa\LK	f	16aaa\LK	f
8FF/	f	8A/	f	8.ccc\J	v	8.cccc\J	v
8EE/	.	8G/	.	.	.	.	.
.	.	.	.	16ff\LK	.	16fff\LK	.
8DD/	.	8F/	.	8.aa\J	.	8.aaa\J	.
[16CC/Jk	.	[16E/Jk	.	.	.	.	.
=260	=260	=260	=260	=260	=260	=260	=260
16CC/LK]	.	16E/LK]	.	16dd\LK	.	16ddd\LK	.
8BB-/	.	8D/	.	8.gg\J	.	8.ggg\J	.
[16GG/Jk	.	[16G/Jk	.	.	.	.	.
16GG/LK]	.	16G/LK]	.	16ff\LK	.	16fff\LK	.
8C/	.	8c/	.	8.ee\J	.	8.eee\J	.
16CC/Jk	.	16C/Jk	.	.	.	.	.
=261	=261	=261	=261	=261	=261	=261	=261
8.DD/L	ff	8.G\L 8.f\	ff	8.f/L 8.bn/	ff	16fff\LL	ff
.	.	.	.	.	.	16f\J	.
.	.	.	.	.	.	[8f\J	.
16DD/Jk	.	16G\Jk 16f\	.	16f/Jk 16b/	.	.	.
8.DD/L	.	8.G\L 8.f\	.	8.f/L 8.b/	.	16f/LL]	.
.	.	.	.	.	.	16bn/J	.
.	.	.	.	.	.	[8b/J	.
16DD/Jk	.	16G\Jk 16f\	.	16f/Jk 16b/	.	.	.
=262	=262	=262	=262	=262	=262	=262	=262
16DD/LL	.	16G\LL 16f\	.	16f/LL 16bn/	.	16b\LL]	.
16DD/	.	16G\ 16f\	.	16f/ 16b/	.	16ff\	.
16DD/	.	16G\ 16f\	.	16f/ 16b/	.	16ff\	.
16DD/JJ	.	16G\JJ 16f\	.	16f/JJ 16b/	.	16bbn\JJ	.
16DD/LL	.	16G\LL 16f\	.	16f/LL 16b/	.	16bb\LL	.
16DD/	.	16G\ 16f\	.	16f/ 16b/	.	16fff\	.
16DD/	.	16G\ 16f\	.	16f/ 16b/	.	16fff\	.
16DD/JJ	.	16G\JJ 16f\	.	16f/JJ 16b/	.	16fff\JJ	.
=263	=263	=263	=263	=263	=263	=263	=263
2DD;/	.	2G;/	.	2f;/ 2bn;/	.	2fff;\	.
=264	=264	=264	=264	=264	=264	=264	=264
8.CC/L	ff	8.C/L 8.B-/	ff	8.g\L 8.ee\	ff	16b-/LL	ff
.	.	.	.	.	.	16B-/J	.
.	.	.	.	.	.	[8B-/J	.
16CC/Jk	.	16C/Jk 16B-/	.	16g\Jk 16ee\	.	.	.
8.CC/L	.	8.C/L 8.B-/	.	8.g\L 8.ee\	.	16B-/LL]	.
.	.	.	.	.	.	16e/J	.
.	.	.	.	.	.	[8e/J	.
16CC/Jk	.	16C/Jk 16B-/	.	16g\Jk 16ee\	.	.	.
=265	=265	=265	=265	=265	=265	=265	=265
16CC/LL	.	16C/LL 16B-/	.	16g\LL 16ee\	.	16e/LL]	.
16CC/	.	16C/ 16B-/	.	16g\ 16ee\	.	16b-/	.
16CC/	.	16C/ 16B-/	.	16g\ 16ee\	.	16b-/	.
16CC/JJ	.	16C/JJ 16B-/	.	16g\JJ 16ee\	.	16ee/JJ	.
16CC/LL	.	16C/LL 16B-/	.	16g\LL 16ee\	.	16ee\LL	.
16CC/	.	16C/ 16B-/	.	16g\ 16ee\	.	16bb-\	.
16CC/	.	16C/ 16B-/	.	16g\ 16ee\	.	16bb-\	.
16CC/JJ	.	16C/JJ 16B-/	.	16g\JJ 16ee\	.	16bb-\JJ	.
=266	=266	=266	=266	=266	=266	=266	=266
4CC;/	.	4C;/ 4B-;/	.	4g;\ 4ee;\	.	8bb-;\	.
.	.	.	.	.	.	ggq/LL	.
.	.	.	.	.	.	eeq/	.
.	.	.	.	.	.	ccq/	.
.	.	.	.	.	.	b-q/	.
.	.	.	.	.	.	gq/	.
.	.	.	.	.	.	eq/	.
.	.	.	.	.	.	cq/JJ	.
.	.	.	.	.	.	8B-;/	.
4r	.	4r	.	(8cc\L	pp	4r	.
.	.	.	.	16dd\L	.	.	.
.	.	.	.	16a\JJ)	.	.	.
=267	=267	=267	=267	=267	=267	=267	=267
2r	.	2r	pp	8b-'/L	.	2r	.
.	.	.	.	8g'/J	.	.	.
.	.	.	.	8g-'/L	.	.	.
.	.	.	.	8d'/J	.	.	.
=268	=268	=268	=268	=268	=268	=268	=268
2r	.	2r	.	(8g/L	.	4r	.
.	.	.	.	8b-/J)	.	.	.
.	.	.	.	(8d/L	.	(8ccc\L	pp
.	.	.	.	16e/L	.	16ddd\L	.
.	.	.	.	16f#/JJ)	.	16aa\JJ)	.
=269	=269	=269	=269	=269	=269	=269	=269
2r	.	2r	.	8g'/L	.	8bb-'\L	.
.	.	.	.	8g'/J	.	8gg'\J	.
.	.	.	.	8a'/L	.	8ff#'\L	.
.	.	.	.	8a'/J	.	8dd'\J	.
=270	=270	=270	=270	=270	=270	=270	=270
2r	.	4r	.	4b-\	.	(8gg\L	.
.	.	.	.	.	.	8bb-\J)	.
.	.	8c/L	pp	4r	.	(8dd\L	.
.	.	16d/L	.	.	.	16ee\L	.
.	.	16A/JJ	.	.	.	16ff#\JJ)	.
=271	=271	=271	=271	=271	=271	=271	=271
2r	.	8B-/L	.	2r	.	8gg'\L	.
.	.	8G/J	.	.	.	8gg'\J	.
.	.	8G-/L	.	.	.	8aa'\L	.
.	.	8D/J	.	.	.	8aa'\J	.
=272	=272	=272	=272	=272	=272	=272	=272
4r	.	8G/L	.	2r	.	4bb-\	.
.	.	8B-/J	.	.	.	.	.
(8BB-/L	pp	8C/L	.	.	.	4r	.
16C/L	.	16D/L	.	.	.	.	.
16GG/JJ)	.	16E/JJ	.	.	.	.	.
=273	=273	=273	=273	=273	=273	=273	=273
8AA'/L	.	8F'/L	.	2r	.	2r	.
8FF'/J	.	8F'/J	.	.	.	.	.
8EE'/L	.	8G'/L	.	.	.	.	.
8CC'/J	.	8G'/J	.	.	.	.	.
=274	=274	=274	=274	=274	=274	=274	=274
(8FF/L	.	4A/	.	4r	.	2r	.
8AA/J)	.	.	.	.	.	.	.
(8CC/L	.	4r	.	(8b-/L	pp	.	.
16DD/L	.	.	.	16cc/L	.	.	.
16EE/JJ)	.	.	.	16g/JJ)	.	.	.
=275	=275	=275	=275	=275	=275	=275	=275
8FF'/L	.	4r	.	8a-'/L	.	2r	.
8FF'/J	.	.	.	8f'/J	.	.	.
8GG'/L	.	8C/L	.	8e'/L	.	.	.
8GG'/J	.	16D/L	.	8c'/J	.	.	.
.	.	16E/JJ	.	.	.	.	.
=276	=276	=276	=276	=276	=276	=276	=276
(4AA-/	.	8F'/L	.	(8f/L	.	4r	.
.	.	8F'/J	.	8a-/J)	.	.	.
8BB-/L	.	8G'/L	.	4r	.	(8cc\L	.
16C/L	.	8G'/J	.	.	.	16dd\L	.
16GG/JJ)	.	.	.	.	.	16ee\JJ	.
=277	=277	=277	=277	=277	=277	=277	=277
8AA-'/L	.	8c'/L	.	4r	.	8ff'\L)	.
8FF'/J	.	8A-'/J	.	.	.	8ff'\J	.
8EE-'/L	.	8B-'/L	.	(8d-/L	.	8gg'\L	.
8EE-'/J	.	[8E-/J	.	16e-/L	.	8gg'\J	.
.	.	.	.	16B-/JJ)	.	.	.
=278	=278	=278	=278	=278	=278	=278	=278
8AA-/L	.	4E-/]	.	(8c/L	.	8aa-\L	.
8AA-/J	.	.	.	8A-/J)	.	8aa-\J	.
8FF/L	.	[4F/	.	(8e-/L	.	8aan\L	.
8FF/J	.	.	.	16f/L	.	8aa\J	.
.	.	.	.	16c/JJ)	.	.	.
=279	=279	=279	=279	=279	=279	=279	=279
8BB-/L	.	4F/]	.	(8d-/L	.	8bb-\L	.
8BB-/J	.	.	.	8B-/J)	.	8bb-\J	.
(8FF/L	.	8F/L	.	8g'\L	.	8bbn\L	.
16GG/L	.	16G/L	.	8bn'\J 8gg'\	.	8bb\J	.
16DD/JJ)	.	16D/JJ	.	.	.	.	.
=280	=280	=280	=280	=280	=280	=280	=280
8EE/	.	8E/L	.	8cc'\L 8gg'\	.	[4ccc\	.
[4.CC/	.	16A/L	.	[8cc\J	.	.	.
.	.	16E/JJ	.	.	.	.	.
.	.	8F/L	.	(8cc\L]	.	(8ccc\L]	.
.	.	8F#/J	.	16dd\L	.	16ddd\L	.
.	.	.	.	16a\JJ)	.	16aa\JJ)	.
=281	=281	=281	=281	=281	=281	=281	=281
2CC/_	.	(8F/L	.	[4b-\	.	[4bb-\	.
.	.	16G/L	.	.	.	.	.
.	.	16D/JJ	.	.	.	.	.
.	.	8E-/L	.	(8b-/L]	.	(8bb-\L]	.
.	.	[8En/J)	.	16cc/L	.	16ccc\L	.
.	.	.	.	16g/JJ)	.	16gg\JJ)	.
=282	=282	=282	=282	=282	=282	=282	=282
2CC/_	.	(8E/L]	.	4a/	.	[4aa\	.
.	.	16F/L	.	.	.	.	.
.	.	16C#/JJ)	.	.	.	.	.
.	.	4D/	.	[4b-\	.	(8aa\L]	.
.	.	.	.	.	.	16bb-\L	.
.	.	.	.	.	.	16ff\JJ)	.
=283	=283	=283	=283	=283	=283	=283	=283
8CC/L]	.	4E/	.	8b-\L]	.	8aa\	.
8C/J	.	.	.	(8b-\J	.	4gg\	.
8r	.	4F/	.	8a/L)	.	.	.
8C/	.	.	.	(8a/J	.	[8ff\	.
=284	=284	=284	=284	=284	=284	=284	=284
8r	.	4G/	.	8g/L)	.	8ff\]	.
8C/	.	.	.	(8g/J	.	4ee\	.
8r	.	4A/	.	8f/L)	.	.	.
8C/	.	.	.	(8f/J	.	8dd\	.
=285	=285	=285	=285	=285	=285	=285	=285
8C'/L	<	8B-'/L	<	8e/)	<	16cc/LL	<
.	.	.	.	.	.	16g/	.
16r	.	16r	.	8r	.	16a/	.
16C'/Jk	.	16E'/Jk 16G'/	.	.	.	16f#/JJ	.
8C'/L	.	8E'/L 8G'/	.	4r	.	&(16g/LL&)	.
.	.	.	.	.	.	16b-/	.
16r	.	16r	.	.	.	&(16cc/&)	.
16C'/Jk	.	16E'/Jk 16G'/	.	.	.	16a/JJ	.
=286	=286	=286	=286	=286	=286	=286	=286
8C'/L	.	8E'/L 8G'/	.	2r	.	&(16b-\LL&)	.
.	.	.	.	.	.	(16ee\	.
16r	.	16r	.	.	.	16ff\)	.
16C'/Jk	.	16E'/Jk 16G'/	.	.	.	(16dd\JJ	.
8C'/L	.	8E'/L 8G'/	.	.	.	16ee\LL)	.
.	.	.	.	.	.	(16ff#\	.
16r	.	16r	.	.	.	16gg\)	.
16C'/Jk	.	16E'/Jk 16G'/	.	.	.	(16b-\JJ	.
=287	=287	=287	=287	=287	=287	=287	=287
8C'/L	.	8F'/L 8A'/	.	2r	.	16a/LL)	.
.	.	.	.	.	.	(16a/	.
16r	.	16r	.	.	.	16b-/)	.
16C'/Jk	.	16F'/Jk 16A'/	.	.	.	(16g/JJ	.
8C'/L	.	8F'/L 8A'/	.	.	.	16a\LL)	.
.	.	.	.	.	.	(16cc\	.
16r	.	16r	.	.	.	16dd\)	.
16C'/Jk	.	16F'/Jk 16A'/	.	.	.	(16bn\JJ	.
=288	=288	=288	=288	=288	=288	=288	=288
8C'/L	.	8F'/L 8A'/	.	2r	.	16cc\LL)	.
.	.	.	.	.	.	(16ff\	.
16r	.	16r	.	.	.	16gg\)	.
16C'/Jk	.	16F'/Jk 16A'/	.	.	.	(16ee\JJ	.
8C'/L	.	8F'/L 8A'/	.	.	.	16ff\LL)	.
.	.	.	.	.	.	(16gg#\	.
16r	.	16r	.	.	.	16aa\)	.
16C'/Jk	.	16F'/Jk 16A'/	.	.	.	(16cc\JJ	.
=289	=289	=289	=289	=289	=289	=289	=289
8C\L 8G\	.	8B-/L	.	16r	.	16b-\LL)	.
.	.	.	.	(16g/LL	.	(16b-\	.
16r	.	16r	.	16a/)	.	16cc\)	.
16C\Jk 16G\	.	16B-/Jk	.	(16f#/JJ	.	(16a\JJ	.
8C\L 8G\	.	8B-/L	.	16g/LL)	.	16b-\LL)	.
.	.	.	.	(16g/	.	(16ee\	.
16r	.	16r	.	16a/)	.	16ff\)	.
16C\Jk 16G\	.	16B-/Jk	.	(16f#/JJ	.	(16dd#\JJ	.
=290	=290	=290	=290	=290	=290	=290	=290
8C\L 8G\	.	8B-/L	.	16g\LL)	.	16ee\LL)	.
.	.	.	.	(16ee\	.	(16gg\	.
16r	.	16r	.	16ff\)	.	16aa\)	.
16C\Jk 16G\	.	16B-/Jk	.	(16dd#\JJ	.	(16ff#\JJ	.
8C\L 8G\	.	8B-/L	.	16ee\LL)	.	16gg\LL)	.
.	.	.	.	(16ff\	.	(16aa\	.
16r	.	16r	.	16gg\)	.	16bb-\)	.
16C\Jk 16G\	.	16B-/Jk	.	(16g\JJ	.	(16b-\JJ	.
=291	=291	=291	=291	=291	=291	=291	=291
8C\L 8A\	.	8c\L	.	16f/LL)	.	16a\LL)	.
.	.	.	.	(16a/	.	(16ff\	.
16r	.	16r	.	16b-/)	.	16gg\)	.
16C\Jk 16A\	.	16c\Jk	.	(16g/JJ	.	(16ee\JJ	.
8C\L 8A\	.	8c\L	.	16a\LL)	.	16ff\LL)	.
.	.	.	.	(16ff\	.	(16aa\	.
16r	.	16r	.	16gg\)	.	16bb-\)	.
16C\Jk 16A\	.	16c\Jk	.	(16ee\JJ	.	(16gg\JJ	.
=292	=292	=292	=292	=292	=292	=292	=292
8C\L 8A\	.	8c\L	.	16ff\LL)	.	16aa\LL)	.
.	.	.	.	(16aa\	.	(16ccc\	.
16r	.	16r	.	16bb-\)	.	16ddd\)	.
16C\Jk 16A\	.	16c\Jk	.	(16gg#\JJ	.	(16bbn\JJ	.
8C\L 8A\	.	8c\L	.	16aa\LL)	.	16ccc\LL)	.
.	.	.	.	16bb-'\	.	16ddd'\	.
16r	.	16r	.	16ggn'\	.	16eee'\	.
16C\Jk 16A\	.	16c\Jk	.	16aa'\JJ	.	16fff'\JJ	.
=293	=293	=293	=293	=293	=293	=293	=293
16CC'/LL	f	4C/	F	[2ee\	F	[2gg\	f
(16C/	.	.	.	.	.	.	.
16D/)	.	.	.	.	.	.	.
(16BBn/JJ	.	.	.	.	.	.	.
16C/)	.	16r	.	.	.	.	.
16r	.	(16E/LL	f	.	.	.	.
8r	.	16F/)	.	.	.	.	.
.	.	(16D/JJ	.	.	.	.	.
=294	=294	=294	=294	=294	=294	=294	=294
16r	.	4E/)	.	2ee\]	f	2gg\]	.
(16G\LL	f	.	.	.	.	.	.
16A\)	.	.	.	.	.	.	.
(16F#\JJ	.	.	.	.	.	.	.
16G\)	.	16r	.	.	.	.	.
16r	.	(16B-/LL	.	.	.	.	.
8r	.	16c/)	f	.	.	.	.
.	.	(16A/JJ	.	.	.	.	.
=295	=295	=295	=295	=295	=295	=295	=295
[2C/	ff	[2B-/)	ff	[2gg\	ff	[2eee\	ff
=296	=296	=296	=296	=296	=296	=296	=296
2C/]	.	2B-/]	.	2gg\]	.	2eee\]	.
=297	=297	=297	=297	=297	=297	=297	=297
(8FF/L	ff	(8A/L	ff	4ff\	v	4fff\	v
16GG/L	.	16B-/L	.	.	.	.	.
16AA/JJ)	.	16c/JJ)	.	.	.	.	.
(8BB-/L	.	(8d\L	.	4dd\	v	4ddd\	v
16C/L	.	16e\L	.	.	.	.	.
16D/JJ)	.	16f\JJ)	.	.	.	.	.
=298	=298	=298	=298	=298	=298	=298	=298
8E\L	.	8C/L	.	4cc\	v	4ccc\	v
16F\L	.	16D/L	.	.	.	.	.
16G\JJ	.	16E/JJ	.	.	.	.	.
8A\L	.	8F/L	.	4a/	v	4aa\	v
16B-\L	.	16G/L	.	.	.	.	.
16c\JJ	.	16A/JJ	.	.	.	.	.
=299	=299	=299	=299	=299	=299	=299	=299
4d-\	.	4B-/	p	4g/	.	4gg\	.
[4c\	vp	[4C/ [4B-/	vp	[4g/	vp	(8ee\L	vp
.	.	.	.	.	.	16ff\L	.
.	.	.	.	.	.	16gg\JJ)	.
=300	=300	=300	=300	=300	=300	=300	=300
2c\]	.	2C/] 2B-/]	.	2g/]	.	(8ff\L	.
.	.	.	.	.	.	16ee\L	.
.	.	.	.	.	.	16dd\JJ)	.
.	.	.	.	.	.	(8cc\L	.
.	.	.	.	.	.	16dd\L	.
.	.	.	.	.	.	16ee\JJ)	.
=301	=301	=301	=301	=301	=301	=301	=301
4F\	Xffv	4A/	Xffv	8f/	ff	16ff\LL	ff
.	.	.	.	.	.	(16f\	.
.	.	.	.	(16G/LL	.	16g\	.
.	.	.	.	16A/JJ)	.	16a\JJ)	.
4D\	v	4F/	v	(8B-/L	.	(8b-\L	.
.	.	.	.	16c/L	.	16cc\L	.
.	.	.	.	16d/JJ)	.	16dd\JJ)	.
=302	=302	=302	=302	=302	=302	=302	=302
4C/	v	4c\	v	(8e/L	.	(8ee\L	.
.	.	.	.	16f/L	.	16ff\L	.
.	.	.	.	16g/JJ)	.	16gg\JJ)	.
4AA/	v	4A/	v	(8a\L	.	(8aa\L	.
.	.	.	.	16b-\L	.	16bb-\L	.
.	.	.	.	16cc\JJ)	.	16ccc\JJ)	.
=303	=303	=303	=303	=303	=303	=303	=303
4GG/	f	4G/	f	4b-\ 4bb-\	f	4ddd-\	f
8EE/L	.	8E/L	.	[4b-\ [4gg\	.	[4ccc\	.
16FF/L	.	16F/L	.	.	.	.	.
16GG/JJ	.	16G/JJ	.	.	.	.	.
=304	=304	=304	=304	=304	=304	=304	=304
8FF/L	.	8F/L	.	2b-\] 2gg\]	f	2ccc\_	.
16EE/L	.	16E/L	.	.	.	.	.
16DD/JJ	.	16D/JJ	.	.	.	.	.
8CC/L	.	8C/L	.	.	.	.	.
16DD/L	.	16D/L	.	.	.	.	.
16EE/JJ	.	16E/JJ	.	.	.	.	.
=305	=305	=305	=305	=305	=305	=305	=305
8FF/L	.	8F/L	.	(8a\L 8ff\	.	4ccc\]	.
16GG/L	.	16G/L	.	16ee\L	.	.	.
16AA/JJ	.	16A/JJ	.	16dd\JJ)	.	.	.
8BB-/L	v	8B-/L	v	[4cc\	.	(8ccc\L	v
16AA/L	.	16A/L	.	.	.	16ddd\L	.
16GG/JJ	.	16G/JJ	.	.	.	16eee\JJ)	.
=306	=306	=306	=306	=306	=306	=306	=306
8FF/L	v	8F/L	v	2cc\_	.	(8fff\L	v
16EE/L	.	16E/L	.	.	.	16ggg\L	.
16DD/JJ	.	16D/JJ	.	.	.	16aaa\JJ)	.
8CC/L	v	8C/L	v	.	.	(8bbb-\L	v
16DD/L	.	16D/L	.	.	.	16aaa\L	.
16EE/JJ	.	16E/JJ	.	.	.	16ggg\JJ)	.
=307	=307	=307	=307	=307	=307	=307	=307
(8FF/L	.	(8F/L	.	4cc\]	.	(8fff\L	.
16GG/L	.	16G/L	.	.	.	16eee\L	.
16AA/JJ)	.	16A/JJ)	.	.	.	16ddd\JJ)	.
(8BB-/L	.	(8B-/L	.	(8cc\L	.	[4ccc\	.
16AA/L	.	16A/L	.	16dd\L	.	.	.
16GG/JJ)	.	16G/JJ)	.	16ee\JJ)	.	.	.
=308	=308	=308	=308	=308	=308	=308	=308
(8FF/L	.	(8F/L	.	(8ff\L	.	4.ccc\]	.
16GG/L	.	16G/L	.	16ee\L	.	.	.
16AA/JJ)	.	16A/JJ)	.	16dd\JJ)	.	.	.
8BB-'/L	.	8B-'/L	.	8cc'\L	.	.	.
8AA'/J	.	8A'/J	.	8cc#'\J	.	8ccc#\	.
=309	=309	=309	=309	=309	=309	=309	=309
*MM40	*MM40	*MM40	*MM40	*MM40	*MM40	*MM40	*MM40
2BB-/	ff>	2B-\ 2f\	ff>	2dd\	ff>	2ddd\	ff>
=310	=310	=310	=310	=310	=310	=310	=310
[2F\	p	[2f\	p	(4bb-\	p	(4ddd\	p
.	.	.	.	8aa\L	.	8ccc\L	.
.	.	.	.	16ccc\L	.	16ddd\L	.
.	.	.	.	16gg\JJ)	.	16eee\JJ)	.
=311	=311	=311	=311	=311	=311	=311	=311
8F\L]	.	(8f\L]	.	8aa\L	.	(8fff'\L	.
(16f\L	.	16a\L	.	8ff\J	.	8fff'\J)	.
16d\JJ	.	[16f\JJ)	.	.	.	.	.
8Bn\L	.	(8f\L]	.	8dd\L	.	(8ggg'\L	.
8B-\J	.	8e\J)	.	8dd\J	.	8ggg'\J)	.
=312	=312	=312	=312	=312	=312	=312	=312
4A\	X>	4e\	X>	4cc#\	X>	4aaa\	X>
4G\	.	4e\	.	8r	.	8cccc\L	.
.	.	.	.	(8dd\	.	(16cccc'\L	.
.	.	.	.	.	.	16bbb-'\JJ)	.
=313	=313	=313	=313	=313	=313	=313	=313
4A\	.	4e\	.	4cc#\	.	(4aaa\	.
4G\	.	(4e\	.	[4ccn\)	.	8.cccc\L	.
.	.	.	.	.	.	16bbb-\Jk)	.
=314	=314	=314	=314	=314	=314	=314	=314
4F\	.	4f\	.	4cc\]	.	(4aaa\	.
4C/	.	4e\	.	(8.ccc\L	.	4ggg\	.
.	.	.	.	16bb-\Jk	.	.	.
=315	=315	=315	=315	=315	=315	=315	=315
4F\	.	4f\)	.	4aa\)	.	4aaa\)	.
4C/	.	(8.c/L	.	(4e/	.	(4gg\	.
.	.	16B-/Jk	.	.	.	.	.
=316	=316	=316	=316	=316	=316	=316	=316
4FF/)	.	4A/)	.	4f/	.	4aa\	.
(8.C/L	ppp	4c\	ppp	4e/)	ppp	4g/)	ppp
16BB-/Jk)	.	.	.	.	.	.	.
=317	=317	=317	=317	=317	=317	=317	=317
[8AA/L	.	[8c\L	.	[8f/L	.	[8a/L	.
16AA/Jk]	.	16c\Jk]	.	16f/Jk]	.	16a/Jk]	.
16r	.	16r	.	16r	.	16r	.
[8C/L	.	[8B-/L	.	[8e/L	.	[8g/L	.
16C/Jk]	.	16B-/Jk]	.	16e/Jk]	.	16g/Jk]	.
16r	.	16r	.	16r	.	16r	.
=318	=318	=318	=318	=318	=318	=318	=318
[8F\L	.	[8A/L	.	[8c/L	.	[8f/L	.
16F\Jk]	.	16A/Jk]	.	16c/Jk]	.	16f/Jk]	.
16r	.	16r	.	16r	.	16r	.
[8E\L	.	[8c\L	.	8B-/L [8e/	.	[8g/L	.
16E\Jk]	.	16c\Jk]	.	16B-/Jk 16e/]	.	16g/Jk]	.
16r	.	16r	.	16r	.	16r	.
=319	=319	=319	=319	=319	=319	=319	=319
*MM180	*MM180	*MM180	*MM180	*MM180	*MM180	*MM180	*MM180
8FF/L	ff	8F/L	ff	8A/L	ff	8f/L	ff
16AA/L	.	16f/L	.	16a/L	.	16cc/L	.
16GG/JJ	.	16f/JJ	.	16a/JJ	.	16cc/JJ	.
8FF/L	.	8f\L	.	8a\L	.	8cc\L	.
16AA/L	.	16A\L	.	16cc\L	.	16ff\L	.
16GG/JJ	.	16A\JJ	.	16cc\JJ	.	16ff\JJ	.
=320	=320	=320	=320	=320	=320	=320	=320
8FF/L	.	8A/L	.	8cc\L	.	8ff\L	.
16AA/L	.	16c/L	.	16ff\L	.	16aa\L	.
16GG/JJ	.	16c/JJ	.	16ff\JJ	.	16aa\JJ	.
8FF/L	.	8c\L	.	8ff\L	.	8aa\L	.
16AA/L	.	16f\L	.	16aa\L	.	16ccc\L	.
16GG/JJ	.	16f\JJ	.	16aa\JJ	.	16ccc\JJ	.
=321	=321	=321	=321	=321	=321	=321	=321
8FF/L	.	8f\L	.	8aa\L	.	8ccc\L	.
16AA/L	.	16a\L	.	16ccc\L	.	16fff\L	.
16GG/JJ	.	16a\JJ	.	16ccc\JJ	.	16fff\JJ	.
8FF/L	.	8a\L	.	8ccc\L	.	8fff\L	.
16AA/L	.	16cc\L	.	16fff\L	.	16aaa\L	.
16GG/JJ	.	16cc\JJ	.	16fff\JJ	.	16aaa\JJ	.
=322	=322	=322	=322	=322	=322	=322	=322
8FF/L	.	8cc\L	.	8fff\L	.	8aaa\L	.
16AA/L	.	16ff\L	.	16aaa\L	.	16cccc\L	.
16GG/JJ	.	16ff\JJ	.	16aaa\JJ	.	16cccc\JJ	.
8FF/L	.	8ff\L	.	8aaa\L	.	8cccc\L	.
16AA/L	.	16ff\L	.	16aaa\L	.	16cccc\L	.
16GG/JJ	.	16ff\JJ	.	16aaa\JJ	.	16cccc\JJ	.
=323	=323	=323	=323	=323	=323	=323	=323
8FF/	.	8ff\	.	8aaa\	.	8fff\	.
8r	.	8r	.	8r	.	8r	.
8C/	.	8c\	.	8g\ 8b-\ 8ee\	.	8e\ 8cc\ 8gg\	.
8r	.	8r	.	8r	.	8r	.
=324	=324	=324	=324	=324	=324	=324	=324
8F\	.	8f\	.	8f\ 8a\ 8ff\	.	8f\ 8cc\ 8aa\	.
8r	.	8r	.	8r	.	8r	.
8E\	.	8C/ 8c/	.	8G/ 8e/	.	8g\ 8b-\ 8ee\	.
8r	.	8r	.	8r	.	8r	.
=325	=325	=325	=325	=325	=325	=325	=325
4FF/	.	4F/	.	4A/ 4f/	.	4f\ 4a\ 4ff\	.
8.r	.	8.r	.	8.r	.	8.r	.
16F\	.	16c\ 16f\	.	16a\ 16ff\	.	16cc\ 16aa\	.
=326	=326	=326	=326	=326	=326	=326	=326
*MM140	*MM140	*MM140	*MM140	*MM140	*MM140	*MM140	*MM140
4F\	.	4c\ 4f\	.	4a\ 4ff\	.	4cc\ 4aa\	.
8.r	.	8.r	.	8.r	.	8.r	.
*MM100	*MM100	*MM100	*MM100	*MM100	*MM100	*MM100	*MM100
16FF/	.	16F/	.	16c/ 16f/	.	16A/ 16f/	.
=327	=327	=327	=327	=327	=327	=327	=327
*MM80	*MM80	*MM80	*MM80	*MM80	*MM80	*MM80	*MM80
4FF/	.	4F/	.	4c/ 4f/	.	4A/ 4f/	.
4r	.	4r	.	4r	.	4r	.
==	==	==	==	==	==	==	==
*-	*-	*-	*-	*-	*-	*-	*-
!!!ENC: Craig Stuart Sapp
!!!END: 2004/09/09/
!!!ONB: Dynamics cleaned up 2004/09/10/
